; Loading start.png
M85 S300 ; if the printer is inactive for 5 minutes, shut down
M140 S60 ; set bed temp
M104 S200 ; set nozzle temp
M105 ; report temp
M106 S-76.000; turn fan on
M109 S200 ; wait on nozzle temp
M190 S60 ; wait on bed temp
G28 ; auto home
M82 ; set to absolute positioning mode
M204 S2000.000 ; Set acceleration of travel
G92 E0 ; tell printer extruder is at zero
G1 Z15 F200 E2.5 ; prime the extruder 
G92 E0 ; tell printer extruder is at zero
G1 Z0.2 F2400 E-4 ; primed, now retrieve line and set to first layer height
M204 S500.000 ; Set acceleration of travel
M205 X20 Y20 ; set jerkiness of the machine a little lower, less bounce.


; Prep is done, start the printing
; --------------------------------------- 
G0 X0.000 Y166.650 ; non-extrude movement 
G0 X116.988 Y152.984 ; non-extrude movement 
G1 X116.321 Y152.984 E0.033 ; move to new pos, extruding.
G0 X83.658 Y152.984 ; non-extrude movement 
G1 X82.991 Y152.984 E0.066 ; move to new pos, extruding.
G0 X38.662 Y152.984 ; non-extrude movement 
G1 X37.996 Y152.984 E0.099 ; move to new pos, extruding.
G0 X129.320 Y152.651 ; non-extrude movement 
G1 X120.321 Y152.651 E0.549 ; move to new pos, extruding.
G0 X116.988 Y152.651 ; non-extrude movement 
G1 X115.988 Y152.651 E0.599 ; move to new pos, extruding.
G0 X110.322 Y152.651 ; non-extrude movement 
G1 X106.656 Y152.651 E0.783 ; move to new pos, extruding.
G0 X104.656 Y152.651 ; non-extrude movement 
G1 X100.323 Y152.651 E0.999 ; move to new pos, extruding.
G0 X98.990 Y152.651 ; non-extrude movement 
G1 X89.991 Y152.651 E1.449 ; move to new pos, extruding.
G0 X85.324 Y152.651 ; non-extrude movement 
G1 X81.325 Y152.651 E1.649 ; move to new pos, extruding.
G0 X75.659 Y152.651 ; non-extrude movement 
G1 X66.660 Y152.651 E2.099 ; move to new pos, extruding.
G1 X63.660 Y152.651 E2.249 ; move to new pos, extruding.
G0 X59.327 Y152.651 ; non-extrude movement 
G1 X54.994 Y152.651 E2.466 ; move to new pos, extruding.
G0 X50.994 Y152.651 ; non-extrude movement 
G1 X46.662 Y152.651 E2.683 ; move to new pos, extruding.
G0 X40.662 Y152.651 ; non-extrude movement 
G1 X35.663 Y152.651 E2.933 ; move to new pos, extruding.
G0 X31.663 Y152.651 ; non-extrude movement 
G1 X22.664 Y152.651 E3.382 ; move to new pos, extruding.
G1 X19.664 Y152.651 E3.532 ; move to new pos, extruding.
G0 X15.331 Y152.651 ; non-extrude movement 
G1 X10.998 Y152.651 E3.749 ; move to new pos, extruding.
G0 X129.320 Y152.318 ; non-extrude movement 
G1 X120.321 Y152.318 E4.199 ; move to new pos, extruding.
G0 X116.988 Y152.318 ; non-extrude movement 
G1 X115.655 Y152.318 E4.266 ; move to new pos, extruding.
G0 X110.322 Y152.318 ; non-extrude movement 
G1 X106.656 Y152.318 E4.449 ; move to new pos, extruding.
G0 X104.656 Y152.318 ; non-extrude movement 
G1 X100.323 Y152.318 E4.666 ; move to new pos, extruding.
G0 X98.990 Y152.318 ; non-extrude movement 
G1 X89.991 Y152.318 E5.116 ; move to new pos, extruding.
G0 X85.991 Y152.318 ; non-extrude movement 
G1 X84.991 Y152.318 E5.166 ; move to new pos, extruding.
G0 X81.658 Y152.318 ; non-extrude movement 
G1 X80.658 Y152.318 E5.216 ; move to new pos, extruding.
G0 X75.659 Y152.318 ; non-extrude movement 
G1 X66.660 Y152.318 E5.666 ; move to new pos, extruding.
G1 X63.327 Y152.318 E5.832 ; move to new pos, extruding.
G0 X59.327 Y152.318 ; non-extrude movement 
G1 X54.994 Y152.318 E6.049 ; move to new pos, extruding.
G0 X50.994 Y152.318 ; non-extrude movement 
G1 X46.662 Y152.318 E6.266 ; move to new pos, extruding.
G0 X41.329 Y152.318 ; non-extrude movement 
G1 X39.996 Y152.318 E6.332 ; move to new pos, extruding.
G0 X36.663 Y152.318 ; non-extrude movement 
G1 X34.663 Y152.318 E6.432 ; move to new pos, extruding.
G0 X31.663 Y152.318 ; non-extrude movement 
G1 X22.664 Y152.318 E6.882 ; move to new pos, extruding.
G1 X19.331 Y152.318 E7.049 ; move to new pos, extruding.
G0 X15.331 Y152.318 ; non-extrude movement 
G1 X10.998 Y152.318 E7.265 ; move to new pos, extruding.
G0 X129.320 Y151.984 ; non-extrude movement 
G1 X128.653 Y151.984 E7.299 ; move to new pos, extruding.
G0 X122.987 Y151.984 ; non-extrude movement 
G1 X121.654 Y151.984 E7.365 ; move to new pos, extruding.
G0 X116.988 Y151.984 ; non-extrude movement 
G1 X115.655 Y151.984 E7.432 ; move to new pos, extruding.
G0 X108.655 Y151.984 ; non-extrude movement 
G1 X107.989 Y151.984 E7.465 ; move to new pos, extruding.
G0 X102.989 Y151.984 ; non-extrude movement 
G1 X101.656 Y151.984 E7.532 ; move to new pos, extruding.
G0 X98.990 Y151.984 ; non-extrude movement 
G1 X98.323 Y151.984 E7.565 ; move to new pos, extruding.
G0 X92.657 Y151.984 ; non-extrude movement 
G1 X91.324 Y151.984 E7.632 ; move to new pos, extruding.
G0 X86.324 Y151.984 ; non-extrude movement 
G1 X85.324 Y151.984 E7.682 ; move to new pos, extruding.
G0 X81.325 Y151.984 ; non-extrude movement 
G1 X80.325 Y151.984 E7.732 ; move to new pos, extruding.
G0 X75.659 Y151.984 ; non-extrude movement 
G1 X74.992 Y151.984 E7.765 ; move to new pos, extruding.
G0 X69.326 Y151.984 ; non-extrude movement 
G1 X67.993 Y151.984 E7.832 ; move to new pos, extruding.
G0 X64.660 Y151.984 ; non-extrude movement 
G1 X63.327 Y151.984 E7.899 ; move to new pos, extruding.
G0 X57.660 Y151.984 ; non-extrude movement 
G1 X56.327 Y151.984 E7.965 ; move to new pos, extruding.
G0 X49.661 Y151.984 ; non-extrude movement 
G1 X48.328 Y151.984 E8.032 ; move to new pos, extruding.
G0 X41.662 Y151.984 ; non-extrude movement 
G1 X40.329 Y151.984 E8.099 ; move to new pos, extruding.
G0 X35.996 Y151.984 ; non-extrude movement 
G1 X34.663 Y151.984 E8.165 ; move to new pos, extruding.
G0 X31.663 Y151.984 ; non-extrude movement 
G1 X30.996 Y151.984 E8.199 ; move to new pos, extruding.
G0 X25.330 Y151.984 ; non-extrude movement 
G1 X23.997 Y151.984 E8.265 ; move to new pos, extruding.
G0 X20.664 Y151.984 ; non-extrude movement 
G1 X19.331 Y151.984 E8.332 ; move to new pos, extruding.
G0 X13.665 Y151.984 ; non-extrude movement 
G1 X12.332 Y151.984 E8.399 ; move to new pos, extruding.
G0 X129.320 Y151.651 ; non-extrude movement 
G1 X128.653 Y151.651 E8.432 ; move to new pos, extruding.
G0 X122.987 Y151.651 ; non-extrude movement 
G1 X121.654 Y151.651 E8.499 ; move to new pos, extruding.
G0 X116.988 Y151.651 ; non-extrude movement 
G1 X115.321 Y151.651 E8.582 ; move to new pos, extruding.
G0 X108.655 Y151.651 ; non-extrude movement 
G1 X107.989 Y151.651 E8.615 ; move to new pos, extruding.
G0 X102.989 Y151.651 ; non-extrude movement 
G1 X101.656 Y151.651 E8.682 ; move to new pos, extruding.
G0 X98.990 Y151.651 ; non-extrude movement 
G1 X98.323 Y151.651 E8.715 ; move to new pos, extruding.
G0 X92.657 Y151.651 ; non-extrude movement 
G1 X91.324 Y151.651 E8.782 ; move to new pos, extruding.
G0 X86.991 Y151.651 ; non-extrude movement 
G1 X85.991 Y151.651 E8.832 ; move to new pos, extruding.
G0 X80.658 Y151.651 ; non-extrude movement 
G1 X79.658 Y151.651 E8.882 ; move to new pos, extruding.
G0 X75.659 Y151.651 ; non-extrude movement 
G1 X74.992 Y151.651 E8.915 ; move to new pos, extruding.
G0 X69.326 Y151.651 ; non-extrude movement 
G1 X67.993 Y151.651 E8.982 ; move to new pos, extruding.
G0 X64.326 Y151.651 ; non-extrude movement 
G1 X62.993 Y151.651 E9.049 ; move to new pos, extruding.
G0 X57.660 Y151.651 ; non-extrude movement 
G1 X56.327 Y151.651 E9.115 ; move to new pos, extruding.
G0 X49.661 Y151.651 ; non-extrude movement 
G1 X48.328 Y151.651 E9.182 ; move to new pos, extruding.
G0 X41.995 Y151.651 ; non-extrude movement 
G1 X40.662 Y151.651 E9.249 ; move to new pos, extruding.
G0 X35.663 Y151.651 ; non-extrude movement 
G1 X34.663 Y151.651 E9.299 ; move to new pos, extruding.
G0 X31.663 Y151.651 ; non-extrude movement 
G1 X30.996 Y151.651 E9.332 ; move to new pos, extruding.
G0 X25.330 Y151.651 ; non-extrude movement 
G1 X23.997 Y151.651 E9.399 ; move to new pos, extruding.
G0 X20.331 Y151.651 ; non-extrude movement 
G1 X18.998 Y151.651 E9.465 ; move to new pos, extruding.
G0 X13.665 Y151.651 ; non-extrude movement 
G1 X12.332 Y151.651 E9.532 ; move to new pos, extruding.
G0 X129.320 Y151.318 ; non-extrude movement 
G1 X128.653 Y151.318 E9.565 ; move to new pos, extruding.
G0 X122.987 Y151.318 ; non-extrude movement 
G1 X121.654 Y151.318 E9.632 ; move to new pos, extruding.
G0 X116.988 Y151.318 ; non-extrude movement 
G1 X114.988 Y151.318 E9.732 ; move to new pos, extruding.
G0 X108.655 Y151.318 ; non-extrude movement 
G1 X107.989 Y151.318 E9.765 ; move to new pos, extruding.
G0 X102.989 Y151.318 ; non-extrude movement 
G1 X101.656 Y151.318 E9.832 ; move to new pos, extruding.
G0 X98.990 Y151.318 ; non-extrude movement 
G1 X98.323 Y151.318 E9.865 ; move to new pos, extruding.
G0 X92.657 Y151.318 ; non-extrude movement 
G1 X91.324 Y151.318 E9.932 ; move to new pos, extruding.
G0 X86.991 Y151.318 ; non-extrude movement 
G1 X85.991 Y151.318 E9.982 ; move to new pos, extruding.
G0 X80.658 Y151.318 ; non-extrude movement 
G1 X79.658 Y151.318 E10.032 ; move to new pos, extruding.
G0 X75.659 Y151.318 ; non-extrude movement 
G1 X74.992 Y151.318 E10.065 ; move to new pos, extruding.
G0 X69.326 Y151.318 ; non-extrude movement 
G1 X67.993 Y151.318 E10.132 ; move to new pos, extruding.
G0 X64.326 Y151.318 ; non-extrude movement 
G1 X62.993 Y151.318 E10.198 ; move to new pos, extruding.
G0 X57.660 Y151.318 ; non-extrude movement 
G1 X56.327 Y151.318 E10.265 ; move to new pos, extruding.
G0 X49.661 Y151.318 ; non-extrude movement 
G1 X48.328 Y151.318 E10.332 ; move to new pos, extruding.
G0 X41.995 Y151.318 ; non-extrude movement 
G1 X40.995 Y151.318 E10.382 ; move to new pos, extruding.
G0 X35.663 Y151.318 ; non-extrude movement 
G1 X34.663 Y151.318 E10.432 ; move to new pos, extruding.
G0 X31.663 Y151.318 ; non-extrude movement 
G1 X30.996 Y151.318 E10.465 ; move to new pos, extruding.
G0 X25.330 Y151.318 ; non-extrude movement 
G1 X23.997 Y151.318 E10.532 ; move to new pos, extruding.
G0 X20.331 Y151.318 ; non-extrude movement 
G1 X18.998 Y151.318 E10.598 ; move to new pos, extruding.
G0 X13.665 Y151.318 ; non-extrude movement 
G1 X12.332 Y151.318 E10.665 ; move to new pos, extruding.
G0 X129.320 Y150.984 ; non-extrude movement 
G1 X128.653 Y150.984 E10.698 ; move to new pos, extruding.
G0 X122.987 Y150.984 ; non-extrude movement 
G1 X121.654 Y150.984 E10.765 ; move to new pos, extruding.
G0 X116.988 Y150.984 ; non-extrude movement 
G1 X114.655 Y150.984 E10.882 ; move to new pos, extruding.
G0 X108.655 Y150.984 ; non-extrude movement 
G1 X107.989 Y150.984 E10.915 ; move to new pos, extruding.
G0 X102.989 Y150.984 ; non-extrude movement 
G1 X101.656 Y150.984 E10.982 ; move to new pos, extruding.
G0 X98.990 Y150.984 ; non-extrude movement 
G1 X98.323 Y150.984 E11.015 ; move to new pos, extruding.
G0 X92.657 Y150.984 ; non-extrude movement 
G1 X91.324 Y150.984 E11.082 ; move to new pos, extruding.
G0 X87.324 Y150.984 ; non-extrude movement 
G1 X86.324 Y150.984 E11.132 ; move to new pos, extruding.
G0 X80.325 Y150.984 ; non-extrude movement 
G1 X79.325 Y150.984 E11.182 ; move to new pos, extruding.
G0 X75.659 Y150.984 ; non-extrude movement 
G1 X74.992 Y150.984 E11.215 ; move to new pos, extruding.
G0 X69.326 Y150.984 ; non-extrude movement 
G1 X67.993 Y150.984 E11.282 ; move to new pos, extruding.
G0 X63.993 Y150.984 ; non-extrude movement 
G1 X62.660 Y150.984 E11.348 ; move to new pos, extruding.
G0 X57.660 Y150.984 ; non-extrude movement 
G1 X56.327 Y150.984 E11.415 ; move to new pos, extruding.
G0 X49.661 Y150.984 ; non-extrude movement 
G1 X48.328 Y150.984 E11.482 ; move to new pos, extruding.
G0 X42.329 Y150.984 ; non-extrude movement 
G1 X40.995 Y150.984 E11.548 ; move to new pos, extruding.
G0 X35.329 Y150.984 ; non-extrude movement 
G1 X34.663 Y150.984 E11.582 ; move to new pos, extruding.
G0 X31.663 Y150.984 ; non-extrude movement 
G1 X30.996 Y150.984 E11.615 ; move to new pos, extruding.
G0 X25.330 Y150.984 ; non-extrude movement 
G1 X23.997 Y150.984 E11.682 ; move to new pos, extruding.
G0 X19.998 Y150.984 ; non-extrude movement 
G1 X18.664 Y150.984 E11.748 ; move to new pos, extruding.
G0 X13.665 Y150.984 ; non-extrude movement 
G1 X12.332 Y150.984 E11.815 ; move to new pos, extruding.
G0 X129.320 Y150.651 ; non-extrude movement 
G1 X128.653 Y150.651 E11.848 ; move to new pos, extruding.
G0 X122.987 Y150.651 ; non-extrude movement 
G1 X121.654 Y150.651 E11.915 ; move to new pos, extruding.
G0 X116.988 Y150.651 ; non-extrude movement 
G1 X114.655 Y150.651 E12.032 ; move to new pos, extruding.
G0 X108.655 Y150.651 ; non-extrude movement 
G1 X107.989 Y150.651 E12.065 ; move to new pos, extruding.
G0 X102.989 Y150.651 ; non-extrude movement 
G1 X101.656 Y150.651 E12.132 ; move to new pos, extruding.
G0 X98.990 Y150.651 ; non-extrude movement 
G1 X98.323 Y150.651 E12.165 ; move to new pos, extruding.
G0 X92.657 Y150.651 ; non-extrude movement 
G1 X91.324 Y150.651 E12.232 ; move to new pos, extruding.
G0 X87.657 Y150.651 ; non-extrude movement 
G1 X86.324 Y150.651 E12.298 ; move to new pos, extruding.
G0 X79.992 Y150.651 ; non-extrude movement 
G1 X78.992 Y150.651 E12.348 ; move to new pos, extruding.
G0 X75.659 Y150.651 ; non-extrude movement 
G1 X74.992 Y150.651 E12.382 ; move to new pos, extruding.
G0 X69.326 Y150.651 ; non-extrude movement 
G1 X67.993 Y150.651 E12.448 ; move to new pos, extruding.
G0 X63.993 Y150.651 ; non-extrude movement 
G1 X62.660 Y150.651 E12.515 ; move to new pos, extruding.
G0 X57.660 Y150.651 ; non-extrude movement 
G1 X56.327 Y150.651 E12.582 ; move to new pos, extruding.
G0 X49.661 Y150.651 ; non-extrude movement 
G1 X48.328 Y150.651 E12.648 ; move to new pos, extruding.
G0 X42.329 Y150.651 ; non-extrude movement 
G1 X41.329 Y150.651 E12.698 ; move to new pos, extruding.
G0 X35.329 Y150.651 ; non-extrude movement 
G1 X34.663 Y150.651 E12.732 ; move to new pos, extruding.
G0 X31.663 Y150.651 ; non-extrude movement 
G1 X30.996 Y150.651 E12.765 ; move to new pos, extruding.
G0 X25.330 Y150.651 ; non-extrude movement 
G1 X23.997 Y150.651 E12.832 ; move to new pos, extruding.
G0 X19.998 Y150.651 ; non-extrude movement 
G1 X18.664 Y150.651 E12.898 ; move to new pos, extruding.
G0 X13.665 Y150.651 ; non-extrude movement 
G1 X12.332 Y150.651 E12.965 ; move to new pos, extruding.
G0 X122.987 Y150.318 ; non-extrude movement 
G1 X121.654 Y150.318 E13.032 ; move to new pos, extruding.
G0 X116.988 Y150.318 ; non-extrude movement 
G1 X116.321 Y150.318 E13.065 ; move to new pos, extruding.
G1 X114.321 Y150.318 E13.165 ; move to new pos, extruding.
G0 X108.655 Y150.318 ; non-extrude movement 
G1 X107.989 Y150.318 E13.198 ; move to new pos, extruding.
G0 X102.989 Y150.318 ; non-extrude movement 
G1 X101.656 Y150.318 E13.265 ; move to new pos, extruding.
G0 X98.990 Y150.318 ; non-extrude movement 
G1 X98.323 Y150.318 E13.298 ; move to new pos, extruding.
G0 X92.657 Y150.318 ; non-extrude movement 
G1 X91.324 Y150.318 E13.365 ; move to new pos, extruding.
G0 X87.657 Y150.318 ; non-extrude movement 
G1 X86.658 Y150.318 E13.415 ; move to new pos, extruding.
G0 X79.992 Y150.318 ; non-extrude movement 
G1 X78.658 Y150.318 E13.481 ; move to new pos, extruding.
G0 X69.326 Y150.318 ; non-extrude movement 
G1 X67.993 Y150.318 E13.548 ; move to new pos, extruding.
G0 X63.660 Y150.318 ; non-extrude movement 
G1 X62.327 Y150.318 E13.615 ; move to new pos, extruding.
G0 X57.660 Y150.318 ; non-extrude movement 
G1 X56.327 Y150.318 E13.681 ; move to new pos, extruding.
G0 X49.661 Y150.318 ; non-extrude movement 
G1 X48.328 Y150.318 E13.748 ; move to new pos, extruding.
G0 X42.329 Y150.318 ; non-extrude movement 
G1 X41.329 Y150.318 E13.798 ; move to new pos, extruding.
G0 X35.329 Y150.318 ; non-extrude movement 
G1 X34.663 Y150.318 E13.831 ; move to new pos, extruding.
G0 X25.330 Y150.318 ; non-extrude movement 
G1 X23.997 Y150.318 E13.898 ; move to new pos, extruding.
G0 X19.664 Y150.318 ; non-extrude movement 
G1 X18.331 Y150.318 E13.965 ; move to new pos, extruding.
G0 X13.665 Y150.318 ; non-extrude movement 
G1 X12.332 Y150.318 E14.031 ; move to new pos, extruding.
G0 X122.987 Y149.985 ; non-extrude movement 
G1 X121.654 Y149.985 E14.098 ; move to new pos, extruding.
G0 X116.988 Y149.985 ; non-extrude movement 
G1 X116.321 Y149.985 E14.131 ; move to new pos, extruding.
G1 X113.988 Y149.985 E14.248 ; move to new pos, extruding.
G0 X108.655 Y149.985 ; non-extrude movement 
G1 X107.989 Y149.985 E14.281 ; move to new pos, extruding.
G0 X102.989 Y149.985 ; non-extrude movement 
G1 X101.656 Y149.985 E14.348 ; move to new pos, extruding.
G0 X92.657 Y149.985 ; non-extrude movement 
G1 X91.324 Y149.985 E14.415 ; move to new pos, extruding.
G0 X87.657 Y149.985 ; non-extrude movement 
G1 X86.658 Y149.985 E14.465 ; move to new pos, extruding.
G0 X79.992 Y149.985 ; non-extrude movement 
G1 X78.658 Y149.985 E14.531 ; move to new pos, extruding.
G0 X69.326 Y149.985 ; non-extrude movement 
G1 X67.993 Y149.985 E14.598 ; move to new pos, extruding.
G0 X63.660 Y149.985 ; non-extrude movement 
G1 X62.327 Y149.985 E14.665 ; move to new pos, extruding.
G0 X57.660 Y149.985 ; non-extrude movement 
G1 X56.327 Y149.985 E14.731 ; move to new pos, extruding.
G0 X49.661 Y149.985 ; non-extrude movement 
G1 X48.328 Y149.985 E14.798 ; move to new pos, extruding.
G0 X42.329 Y149.985 ; non-extrude movement 
G1 X41.329 Y149.985 E14.848 ; move to new pos, extruding.
G0 X35.329 Y149.985 ; non-extrude movement 
G1 X34.663 Y149.985 E14.881 ; move to new pos, extruding.
G0 X25.330 Y149.985 ; non-extrude movement 
G1 X23.997 Y149.985 E14.948 ; move to new pos, extruding.
G0 X19.664 Y149.985 ; non-extrude movement 
G1 X18.331 Y149.985 E15.015 ; move to new pos, extruding.
G0 X13.665 Y149.985 ; non-extrude movement 
G1 X12.332 Y149.985 E15.081 ; move to new pos, extruding.
G0 X122.987 Y149.651 ; non-extrude movement 
G1 X121.654 Y149.651 E15.148 ; move to new pos, extruding.
G0 X116.988 Y149.651 ; non-extrude movement 
G1 X116.321 Y149.651 E15.181 ; move to new pos, extruding.
G0 X115.321 Y149.651 ; non-extrude movement 
G1 X113.655 Y149.651 E15.265 ; move to new pos, extruding.
G0 X108.655 Y149.651 ; non-extrude movement 
G1 X107.989 Y149.651 E15.298 ; move to new pos, extruding.
G0 X102.989 Y149.651 ; non-extrude movement 
G1 X101.656 Y149.651 E15.365 ; move to new pos, extruding.
G0 X92.657 Y149.651 ; non-extrude movement 
G1 X91.324 Y149.651 E15.431 ; move to new pos, extruding.
G0 X79.658 Y149.651 ; non-extrude movement 
G1 X78.325 Y149.651 E15.498 ; move to new pos, extruding.
G0 X69.326 Y149.651 ; non-extrude movement 
G1 X67.993 Y149.651 E15.565 ; move to new pos, extruding.
G0 X63.327 Y149.651 ; non-extrude movement 
G1 X61.993 Y149.651 E15.631 ; move to new pos, extruding.
G0 X57.660 Y149.651 ; non-extrude movement 
G1 X56.327 Y149.651 E15.698 ; move to new pos, extruding.
G0 X49.661 Y149.651 ; non-extrude movement 
G1 X48.328 Y149.651 E15.765 ; move to new pos, extruding.
G0 X42.329 Y149.651 ; non-extrude movement 
G1 X40.995 Y149.651 E15.831 ; move to new pos, extruding.
G0 X25.330 Y149.651 ; non-extrude movement 
G1 X23.997 Y149.651 E15.898 ; move to new pos, extruding.
G0 X19.331 Y149.651 ; non-extrude movement 
G1 X17.998 Y149.651 E15.965 ; move to new pos, extruding.
G0 X13.665 Y149.651 ; non-extrude movement 
G1 X12.332 Y149.651 E16.031 ; move to new pos, extruding.
G0 X122.987 Y149.318 ; non-extrude movement 
G1 X121.654 Y149.318 E16.098 ; move to new pos, extruding.
G0 X116.988 Y149.318 ; non-extrude movement 
G1 X116.321 Y149.318 E16.131 ; move to new pos, extruding.
G0 X114.988 Y149.318 ; non-extrude movement 
G1 X113.655 Y149.318 E16.198 ; move to new pos, extruding.
G0 X108.655 Y149.318 ; non-extrude movement 
G1 X107.989 Y149.318 E16.231 ; move to new pos, extruding.
G0 X102.989 Y149.318 ; non-extrude movement 
G1 X101.656 Y149.318 E16.298 ; move to new pos, extruding.
G0 X92.657 Y149.318 ; non-extrude movement 
G1 X91.324 Y149.318 E16.365 ; move to new pos, extruding.
G0 X79.658 Y149.318 ; non-extrude movement 
G1 X78.325 Y149.318 E16.431 ; move to new pos, extruding.
G0 X69.326 Y149.318 ; non-extrude movement 
G1 X67.993 Y149.318 E16.498 ; move to new pos, extruding.
G0 X63.327 Y149.318 ; non-extrude movement 
G1 X61.993 Y149.318 E16.565 ; move to new pos, extruding.
G0 X57.660 Y149.318 ; non-extrude movement 
G1 X56.327 Y149.318 E16.631 ; move to new pos, extruding.
G0 X49.661 Y149.318 ; non-extrude movement 
G1 X48.328 Y149.318 E16.698 ; move to new pos, extruding.
G0 X42.329 Y149.318 ; non-extrude movement 
G1 X40.995 Y149.318 E16.764 ; move to new pos, extruding.
G0 X25.330 Y149.318 ; non-extrude movement 
G1 X23.997 Y149.318 E16.831 ; move to new pos, extruding.
G0 X19.331 Y149.318 ; non-extrude movement 
G1 X17.998 Y149.318 E16.898 ; move to new pos, extruding.
G0 X13.665 Y149.318 ; non-extrude movement 
G1 X12.332 Y149.318 E16.964 ; move to new pos, extruding.
G0 X122.987 Y148.985 ; non-extrude movement 
G1 X121.654 Y148.985 E17.031 ; move to new pos, extruding.
G0 X116.988 Y148.985 ; non-extrude movement 
G1 X116.321 Y148.985 E17.064 ; move to new pos, extruding.
G0 X114.988 Y148.985 ; non-extrude movement 
G1 X113.322 Y148.985 E17.148 ; move to new pos, extruding.
G0 X108.655 Y148.985 ; non-extrude movement 
G1 X107.989 Y148.985 E17.181 ; move to new pos, extruding.
G0 X102.989 Y148.985 ; non-extrude movement 
G1 X101.656 Y148.985 E17.248 ; move to new pos, extruding.
G0 X92.657 Y148.985 ; non-extrude movement 
G1 X91.324 Y148.985 E17.314 ; move to new pos, extruding.
G0 X79.658 Y148.985 ; non-extrude movement 
G1 X78.325 Y148.985 E17.381 ; move to new pos, extruding.
G0 X69.326 Y148.985 ; non-extrude movement 
G1 X67.993 Y148.985 E17.448 ; move to new pos, extruding.
G0 X62.993 Y148.985 ; non-extrude movement 
G1 X61.660 Y148.985 E17.514 ; move to new pos, extruding.
G0 X57.660 Y148.985 ; non-extrude movement 
G1 X56.327 Y148.985 E17.581 ; move to new pos, extruding.
G0 X49.661 Y148.985 ; non-extrude movement 
G1 X48.328 Y148.985 E17.648 ; move to new pos, extruding.
G0 X42.329 Y148.985 ; non-extrude movement 
G1 X40.995 Y148.985 E17.714 ; move to new pos, extruding.
G0 X25.330 Y148.985 ; non-extrude movement 
G1 X23.997 Y148.985 E17.781 ; move to new pos, extruding.
G0 X18.998 Y148.985 ; non-extrude movement 
G1 X17.664 Y148.985 E17.848 ; move to new pos, extruding.
G0 X13.665 Y148.985 ; non-extrude movement 
G1 X12.332 Y148.985 E17.914 ; move to new pos, extruding.
G0 X122.987 Y148.651 ; non-extrude movement 
G1 X121.654 Y148.651 E17.981 ; move to new pos, extruding.
G0 X116.988 Y148.651 ; non-extrude movement 
G1 X116.321 Y148.651 E18.014 ; move to new pos, extruding.
G0 X114.655 Y148.651 ; non-extrude movement 
G1 X112.988 Y148.651 E18.098 ; move to new pos, extruding.
G0 X108.655 Y148.651 ; non-extrude movement 
G1 X107.989 Y148.651 E18.131 ; move to new pos, extruding.
G0 X102.989 Y148.651 ; non-extrude movement 
G1 X101.656 Y148.651 E18.198 ; move to new pos, extruding.
G0 X92.657 Y148.651 ; non-extrude movement 
G1 X91.324 Y148.651 E18.264 ; move to new pos, extruding.
G0 X79.658 Y148.651 ; non-extrude movement 
G1 X78.325 Y148.651 E18.331 ; move to new pos, extruding.
G0 X69.326 Y148.651 ; non-extrude movement 
G1 X67.993 Y148.651 E18.398 ; move to new pos, extruding.
G0 X62.993 Y148.651 ; non-extrude movement 
G1 X61.660 Y148.651 E18.464 ; move to new pos, extruding.
G0 X57.660 Y148.651 ; non-extrude movement 
G1 X56.327 Y148.651 E18.531 ; move to new pos, extruding.
G0 X49.661 Y148.651 ; non-extrude movement 
G1 X48.328 Y148.651 E18.598 ; move to new pos, extruding.
G0 X42.329 Y148.651 ; non-extrude movement 
G1 X40.662 Y148.651 E18.681 ; move to new pos, extruding.
G0 X25.330 Y148.651 ; non-extrude movement 
G1 X23.997 Y148.651 E18.748 ; move to new pos, extruding.
G0 X18.998 Y148.651 ; non-extrude movement 
G1 X17.664 Y148.651 E18.814 ; move to new pos, extruding.
G0 X13.665 Y148.651 ; non-extrude movement 
G1 X12.332 Y148.651 E18.881 ; move to new pos, extruding.
G0 X122.987 Y148.318 ; non-extrude movement 
G1 X121.654 Y148.318 E18.948 ; move to new pos, extruding.
G0 X116.988 Y148.318 ; non-extrude movement 
G1 X116.321 Y148.318 E18.981 ; move to new pos, extruding.
G0 X114.321 Y148.318 ; non-extrude movement 
G1 X112.655 Y148.318 E19.064 ; move to new pos, extruding.
G0 X108.655 Y148.318 ; non-extrude movement 
G1 X107.989 Y148.318 E19.098 ; move to new pos, extruding.
G0 X102.989 Y148.318 ; non-extrude movement 
G1 X101.656 Y148.318 E19.164 ; move to new pos, extruding.
G0 X92.657 Y148.318 ; non-extrude movement 
G1 X91.324 Y148.318 E19.231 ; move to new pos, extruding.
G0 X79.658 Y148.318 ; non-extrude movement 
G1 X77.992 Y148.318 E19.314 ; move to new pos, extruding.
G0 X69.326 Y148.318 ; non-extrude movement 
G1 X67.993 Y148.318 E19.381 ; move to new pos, extruding.
G0 X62.660 Y148.318 ; non-extrude movement 
G1 X61.327 Y148.318 E19.448 ; move to new pos, extruding.
G0 X57.660 Y148.318 ; non-extrude movement 
G1 X56.327 Y148.318 E19.514 ; move to new pos, extruding.
G0 X49.661 Y148.318 ; non-extrude movement 
G1 X48.328 Y148.318 E19.581 ; move to new pos, extruding.
G0 X41.995 Y148.318 ; non-extrude movement 
G1 X39.996 Y148.318 E19.681 ; move to new pos, extruding.
G0 X25.330 Y148.318 ; non-extrude movement 
G1 X23.997 Y148.318 E19.748 ; move to new pos, extruding.
G0 X18.664 Y148.318 ; non-extrude movement 
G1 X17.331 Y148.318 E19.814 ; move to new pos, extruding.
G0 X13.665 Y148.318 ; non-extrude movement 
G1 X12.332 Y148.318 E19.881 ; move to new pos, extruding.
G0 X127.653 Y147.985 ; non-extrude movement 
G1 X126.987 Y147.985 E19.914 ; move to new pos, extruding.
G0 X122.987 Y147.985 ; non-extrude movement 
G1 X121.654 Y147.985 E19.981 ; move to new pos, extruding.
G0 X116.988 Y147.985 ; non-extrude movement 
G1 X116.321 Y147.985 E20.014 ; move to new pos, extruding.
G0 X113.988 Y147.985 ; non-extrude movement 
G1 X112.655 Y147.985 E20.081 ; move to new pos, extruding.
G0 X108.655 Y147.985 ; non-extrude movement 
G1 X107.989 Y147.985 E20.114 ; move to new pos, extruding.
G0 X102.989 Y147.985 ; non-extrude movement 
G1 X101.656 Y147.985 E20.181 ; move to new pos, extruding.
G0 X92.657 Y147.985 ; non-extrude movement 
G1 X91.324 Y147.985 E20.247 ; move to new pos, extruding.
G0 X79.658 Y147.985 ; non-extrude movement 
G1 X77.992 Y147.985 E20.331 ; move to new pos, extruding.
G0 X73.992 Y147.985 ; non-extrude movement 
G1 X73.326 Y147.985 E20.364 ; move to new pos, extruding.
G0 X69.326 Y147.985 ; non-extrude movement 
G1 X67.993 Y147.985 E20.431 ; move to new pos, extruding.
G0 X62.327 Y147.985 ; non-extrude movement 
G1 X60.993 Y147.985 E20.497 ; move to new pos, extruding.
G0 X57.660 Y147.985 ; non-extrude movement 
G1 X56.327 Y147.985 E20.564 ; move to new pos, extruding.
G0 X49.661 Y147.985 ; non-extrude movement 
G1 X48.328 Y147.985 E20.631 ; move to new pos, extruding.
G0 X41.995 Y147.985 ; non-extrude movement 
G1 X38.996 Y147.985 E20.781 ; move to new pos, extruding.
G0 X29.997 Y147.985 ; non-extrude movement 
G1 X29.330 Y147.985 E20.814 ; move to new pos, extruding.
G0 X25.330 Y147.985 ; non-extrude movement 
G1 X23.997 Y147.985 E20.881 ; move to new pos, extruding.
G0 X18.331 Y147.985 ; non-extrude movement 
G1 X16.998 Y147.985 E20.947 ; move to new pos, extruding.
G0 X13.665 Y147.985 ; non-extrude movement 
G1 X12.332 Y147.985 E21.014 ; move to new pos, extruding.
G0 X127.653 Y147.651 ; non-extrude movement 
G1 X126.987 Y147.651 E21.047 ; move to new pos, extruding.
G0 X122.987 Y147.651 ; non-extrude movement 
G1 X121.654 Y147.651 E21.114 ; move to new pos, extruding.
G0 X116.988 Y147.651 ; non-extrude movement 
G1 X116.321 Y147.651 E21.147 ; move to new pos, extruding.
G0 X113.988 Y147.651 ; non-extrude movement 
G1 X112.322 Y147.651 E21.231 ; move to new pos, extruding.
G0 X108.655 Y147.651 ; non-extrude movement 
G1 X107.989 Y147.651 E21.264 ; move to new pos, extruding.
G0 X102.989 Y147.651 ; non-extrude movement 
G1 X101.656 Y147.651 E21.331 ; move to new pos, extruding.
G0 X92.657 Y147.651 ; non-extrude movement 
G1 X91.324 Y147.651 E21.397 ; move to new pos, extruding.
G0 X79.658 Y147.651 ; non-extrude movement 
G1 X77.992 Y147.651 E21.481 ; move to new pos, extruding.
G0 X73.992 Y147.651 ; non-extrude movement 
G1 X73.326 Y147.651 E21.514 ; move to new pos, extruding.
G0 X69.326 Y147.651 ; non-extrude movement 
G1 X67.993 Y147.651 E21.581 ; move to new pos, extruding.
G0 X61.993 Y147.651 ; non-extrude movement 
G1 X60.660 Y147.651 E21.647 ; move to new pos, extruding.
G0 X57.660 Y147.651 ; non-extrude movement 
G1 X56.327 Y147.651 E21.714 ; move to new pos, extruding.
G0 X49.661 Y147.651 ; non-extrude movement 
G1 X48.328 Y147.651 E21.781 ; move to new pos, extruding.
G0 X41.662 Y147.651 ; non-extrude movement 
G1 X37.996 Y147.651 E21.964 ; move to new pos, extruding.
G0 X29.997 Y147.651 ; non-extrude movement 
G1 X29.330 Y147.651 E21.997 ; move to new pos, extruding.
G0 X25.330 Y147.651 ; non-extrude movement 
G1 X23.997 Y147.651 E22.064 ; move to new pos, extruding.
G0 X17.998 Y147.651 ; non-extrude movement 
G1 X16.665 Y147.651 E22.131 ; move to new pos, extruding.
G0 X13.665 Y147.651 ; non-extrude movement 
G1 X12.332 Y147.651 E22.197 ; move to new pos, extruding.
G0 X127.653 Y147.318 ; non-extrude movement 
G1 X126.987 Y147.318 E22.231 ; move to new pos, extruding.
G0 X122.987 Y147.318 ; non-extrude movement 
G1 X121.654 Y147.318 E22.297 ; move to new pos, extruding.
G0 X116.988 Y147.318 ; non-extrude movement 
G1 X116.321 Y147.318 E22.331 ; move to new pos, extruding.
G0 X113.655 Y147.318 ; non-extrude movement 
G1 X111.988 Y147.318 E22.414 ; move to new pos, extruding.
G0 X108.655 Y147.318 ; non-extrude movement 
G1 X107.989 Y147.318 E22.447 ; move to new pos, extruding.
G0 X102.989 Y147.318 ; non-extrude movement 
G1 X101.656 Y147.318 E22.514 ; move to new pos, extruding.
G0 X92.657 Y147.318 ; non-extrude movement 
G1 X91.324 Y147.318 E22.581 ; move to new pos, extruding.
G0 X79.325 Y147.318 ; non-extrude movement 
G1 X77.992 Y147.318 E22.647 ; move to new pos, extruding.
G0 X73.992 Y147.318 ; non-extrude movement 
G1 X73.326 Y147.318 E22.681 ; move to new pos, extruding.
G0 X69.326 Y147.318 ; non-extrude movement 
G1 X67.993 Y147.318 E22.747 ; move to new pos, extruding.
G0 X61.327 Y147.318 ; non-extrude movement 
G1 X56.327 Y147.318 E22.997 ; move to new pos, extruding.
G0 X49.661 Y147.318 ; non-extrude movement 
G1 X48.328 Y147.318 E23.064 ; move to new pos, extruding.
G0 X40.995 Y147.318 ; non-extrude movement 
G1 X36.996 Y147.318 E23.264 ; move to new pos, extruding.
G0 X29.997 Y147.318 ; non-extrude movement 
G1 X29.330 Y147.318 E23.297 ; move to new pos, extruding.
G0 X25.330 Y147.318 ; non-extrude movement 
G1 X23.997 Y147.318 E23.364 ; move to new pos, extruding.
G0 X17.331 Y147.318 ; non-extrude movement 
G1 X12.332 Y147.318 E23.614 ; move to new pos, extruding.
G0 X127.653 Y146.985 ; non-extrude movement 
G1 X126.987 Y146.985 E23.647 ; move to new pos, extruding.
G0 X122.987 Y146.985 ; non-extrude movement 
G1 X121.654 Y146.985 E23.714 ; move to new pos, extruding.
G0 X116.988 Y146.985 ; non-extrude movement 
G1 X116.321 Y146.985 E23.747 ; move to new pos, extruding.
G0 X113.322 Y146.985 ; non-extrude movement 
G1 X111.655 Y146.985 E23.830 ; move to new pos, extruding.
G0 X108.655 Y146.985 ; non-extrude movement 
G1 X107.989 Y146.985 E23.864 ; move to new pos, extruding.
G0 X102.989 Y146.985 ; non-extrude movement 
G1 X101.656 Y146.985 E23.930 ; move to new pos, extruding.
G0 X92.657 Y146.985 ; non-extrude movement 
G1 X91.324 Y146.985 E23.997 ; move to new pos, extruding.
G0 X79.325 Y146.985 ; non-extrude movement 
G1 X77.992 Y146.985 E24.064 ; move to new pos, extruding.
G0 X73.992 Y146.985 ; non-extrude movement 
G1 X73.326 Y146.985 E24.097 ; move to new pos, extruding.
G0 X69.326 Y146.985 ; non-extrude movement 
G1 X67.993 Y146.985 E24.164 ; move to new pos, extruding.
G0 X61.660 Y146.985 ; non-extrude movement 
G1 X56.327 Y146.985 E24.430 ; move to new pos, extruding.
G0 X49.661 Y146.985 ; non-extrude movement 
G1 X48.328 Y146.985 E24.497 ; move to new pos, extruding.
G0 X40.329 Y146.985 ; non-extrude movement 
G1 X36.329 Y146.985 E24.697 ; move to new pos, extruding.
G0 X29.997 Y146.985 ; non-extrude movement 
G1 X29.330 Y146.985 E24.730 ; move to new pos, extruding.
G0 X25.330 Y146.985 ; non-extrude movement 
G1 X23.997 Y146.985 E24.797 ; move to new pos, extruding.
G0 X17.664 Y146.985 ; non-extrude movement 
G1 X12.332 Y146.985 E25.064 ; move to new pos, extruding.
G0 X127.653 Y146.652 ; non-extrude movement 
G1 X121.654 Y146.652 E25.364 ; move to new pos, extruding.
G0 X116.988 Y146.652 ; non-extrude movement 
G1 X116.321 Y146.652 E25.397 ; move to new pos, extruding.
G0 X112.988 Y146.652 ; non-extrude movement 
G1 X111.655 Y146.652 E25.464 ; move to new pos, extruding.
G0 X108.655 Y146.652 ; non-extrude movement 
G1 X107.989 Y146.652 E25.497 ; move to new pos, extruding.
G0 X102.989 Y146.652 ; non-extrude movement 
G1 X101.656 Y146.652 E25.564 ; move to new pos, extruding.
G0 X92.657 Y146.652 ; non-extrude movement 
G1 X91.324 Y146.652 E25.630 ; move to new pos, extruding.
G0 X79.658 Y146.652 ; non-extrude movement 
G1 X77.992 Y146.652 E25.714 ; move to new pos, extruding.
G0 X73.992 Y146.652 ; non-extrude movement 
G1 X67.993 Y146.652 E26.014 ; move to new pos, extruding.
G0 X62.660 Y146.652 ; non-extrude movement 
G1 X61.660 Y146.652 E26.064 ; move to new pos, extruding.
G0 X57.660 Y146.652 ; non-extrude movement 
G1 X56.327 Y146.652 E26.130 ; move to new pos, extruding.
G0 X49.661 Y146.652 ; non-extrude movement 
G1 X48.328 Y146.652 E26.197 ; move to new pos, extruding.
G0 X39.662 Y146.652 ; non-extrude movement 
G1 X35.663 Y146.652 E26.397 ; move to new pos, extruding.
G0 X29.997 Y146.652 ; non-extrude movement 
G1 X23.997 Y146.652 E26.697 ; move to new pos, extruding.
G0 X18.664 Y146.652 ; non-extrude movement 
G1 X17.664 Y146.652 E26.747 ; move to new pos, extruding.
G0 X13.665 Y146.652 ; non-extrude movement 
G1 X12.332 Y146.652 E26.813 ; move to new pos, extruding.
G0 X127.653 Y146.318 ; non-extrude movement 
G1 X121.654 Y146.318 E27.113 ; move to new pos, extruding.
G0 X116.988 Y146.318 ; non-extrude movement 
G1 X116.321 Y146.318 E27.147 ; move to new pos, extruding.
G0 X112.655 Y146.318 ; non-extrude movement 
G1 X111.322 Y146.318 E27.213 ; move to new pos, extruding.
G0 X108.655 Y146.318 ; non-extrude movement 
G1 X107.989 Y146.318 E27.247 ; move to new pos, extruding.
G0 X102.989 Y146.318 ; non-extrude movement 
G1 X101.656 Y146.318 E27.313 ; move to new pos, extruding.
G0 X92.657 Y146.318 ; non-extrude movement 
G1 X91.324 Y146.318 E27.380 ; move to new pos, extruding.
G0 X79.658 Y146.318 ; non-extrude movement 
G1 X77.992 Y146.318 E27.463 ; move to new pos, extruding.
G0 X73.992 Y146.318 ; non-extrude movement 
G1 X67.993 Y146.318 E27.763 ; move to new pos, extruding.
G0 X63.327 Y146.318 ; non-extrude movement 
G1 X61.993 Y146.318 E27.830 ; move to new pos, extruding.
G0 X57.660 Y146.318 ; non-extrude movement 
G1 X56.327 Y146.318 E27.897 ; move to new pos, extruding.
G0 X49.661 Y146.318 ; non-extrude movement 
G1 X48.328 Y146.318 E27.963 ; move to new pos, extruding.
G0 X38.329 Y146.318 ; non-extrude movement 
G1 X35.329 Y146.318 E28.113 ; move to new pos, extruding.
G0 X29.997 Y146.318 ; non-extrude movement 
G1 X23.997 Y146.318 E28.413 ; move to new pos, extruding.
G0 X19.331 Y146.318 ; non-extrude movement 
G1 X17.998 Y146.318 E28.480 ; move to new pos, extruding.
G0 X13.665 Y146.318 ; non-extrude movement 
G1 X12.332 Y146.318 E28.547 ; move to new pos, extruding.
G0 X127.653 Y145.985 ; non-extrude movement 
G1 X126.987 Y145.985 E28.580 ; move to new pos, extruding.
G0 X122.987 Y145.985 ; non-extrude movement 
G1 X121.654 Y145.985 E28.647 ; move to new pos, extruding.
G0 X116.988 Y145.985 ; non-extrude movement 
G1 X116.321 Y145.985 E28.680 ; move to new pos, extruding.
G0 X112.655 Y145.985 ; non-extrude movement 
G1 X110.988 Y145.985 E28.763 ; move to new pos, extruding.
G0 X108.655 Y145.985 ; non-extrude movement 
G1 X107.989 Y145.985 E28.797 ; move to new pos, extruding.
G0 X102.989 Y145.985 ; non-extrude movement 
G1 X101.656 Y145.985 E28.863 ; move to new pos, extruding.
G0 X92.657 Y145.985 ; non-extrude movement 
G1 X91.324 Y145.985 E28.930 ; move to new pos, extruding.
G0 X79.658 Y145.985 ; non-extrude movement 
G1 X77.992 Y145.985 E29.013 ; move to new pos, extruding.
G0 X73.992 Y145.985 ; non-extrude movement 
G1 X73.326 Y145.985 E29.047 ; move to new pos, extruding.
G0 X69.326 Y145.985 ; non-extrude movement 
G1 X67.993 Y145.985 E29.113 ; move to new pos, extruding.
G0 X63.660 Y145.985 ; non-extrude movement 
G1 X62.327 Y145.985 E29.180 ; move to new pos, extruding.
G0 X57.660 Y145.985 ; non-extrude movement 
G1 X56.327 Y145.985 E29.247 ; move to new pos, extruding.
G0 X49.661 Y145.985 ; non-extrude movement 
G1 X48.328 Y145.985 E29.313 ; move to new pos, extruding.
G0 X37.329 Y145.985 ; non-extrude movement 
G1 X34.996 Y145.985 E29.430 ; move to new pos, extruding.
G0 X29.997 Y145.985 ; non-extrude movement 
G1 X29.330 Y145.985 E29.463 ; move to new pos, extruding.
G0 X25.330 Y145.985 ; non-extrude movement 
G1 X23.997 Y145.985 E29.530 ; move to new pos, extruding.
G0 X19.664 Y145.985 ; non-extrude movement 
G1 X18.331 Y145.985 E29.597 ; move to new pos, extruding.
G0 X13.665 Y145.985 ; non-extrude movement 
G1 X12.332 Y145.985 E29.663 ; move to new pos, extruding.
G0 X127.653 Y145.652 ; non-extrude movement 
G1 X126.987 Y145.652 E29.697 ; move to new pos, extruding.
G0 X122.987 Y145.652 ; non-extrude movement 
G1 X121.654 Y145.652 E29.763 ; move to new pos, extruding.
G0 X116.988 Y145.652 ; non-extrude movement 
G1 X116.321 Y145.652 E29.797 ; move to new pos, extruding.
G0 X112.322 Y145.652 ; non-extrude movement 
G1 X110.655 Y145.652 E29.880 ; move to new pos, extruding.
G0 X108.655 Y145.652 ; non-extrude movement 
G1 X107.989 Y145.652 E29.913 ; move to new pos, extruding.
G0 X102.989 Y145.652 ; non-extrude movement 
G1 X101.656 Y145.652 E29.980 ; move to new pos, extruding.
G0 X92.657 Y145.652 ; non-extrude movement 
G1 X91.324 Y145.652 E30.046 ; move to new pos, extruding.
G0 X79.658 Y145.652 ; non-extrude movement 
G1 X78.325 Y145.652 E30.113 ; move to new pos, extruding.
G0 X73.992 Y145.652 ; non-extrude movement 
G1 X73.326 Y145.652 E30.146 ; move to new pos, extruding.
G0 X69.326 Y145.652 ; non-extrude movement 
G1 X67.993 Y145.652 E30.213 ; move to new pos, extruding.
G0 X63.660 Y145.652 ; non-extrude movement 
G1 X62.327 Y145.652 E30.280 ; move to new pos, extruding.
G0 X57.660 Y145.652 ; non-extrude movement 
G1 X56.327 Y145.652 E30.346 ; move to new pos, extruding.
G0 X49.661 Y145.652 ; non-extrude movement 
G1 X48.328 Y145.652 E30.413 ; move to new pos, extruding.
G0 X36.663 Y145.652 ; non-extrude movement 
G1 X34.663 Y145.652 E30.513 ; move to new pos, extruding.
G0 X29.997 Y145.652 ; non-extrude movement 
G1 X29.330 Y145.652 E30.546 ; move to new pos, extruding.
G0 X25.330 Y145.652 ; non-extrude movement 
G1 X23.997 Y145.652 E30.613 ; move to new pos, extruding.
G0 X19.664 Y145.652 ; non-extrude movement 
G1 X18.331 Y145.652 E30.680 ; move to new pos, extruding.
G0 X13.665 Y145.652 ; non-extrude movement 
G1 X12.332 Y145.652 E30.746 ; move to new pos, extruding.
G0 X127.653 Y145.318 ; non-extrude movement 
G1 X126.987 Y145.318 E30.780 ; move to new pos, extruding.
G0 X122.987 Y145.318 ; non-extrude movement 
G1 X121.654 Y145.318 E30.846 ; move to new pos, extruding.
G0 X116.988 Y145.318 ; non-extrude movement 
G1 X116.321 Y145.318 E30.880 ; move to new pos, extruding.
G0 X111.988 Y145.318 ; non-extrude movement 
G1 X110.655 Y145.318 E30.946 ; move to new pos, extruding.
G0 X108.655 Y145.318 ; non-extrude movement 
G1 X107.989 Y145.318 E30.980 ; move to new pos, extruding.
G0 X102.989 Y145.318 ; non-extrude movement 
G1 X101.656 Y145.318 E31.046 ; move to new pos, extruding.
G0 X92.657 Y145.318 ; non-extrude movement 
G1 X91.324 Y145.318 E31.113 ; move to new pos, extruding.
G0 X79.658 Y145.318 ; non-extrude movement 
G1 X78.325 Y145.318 E31.180 ; move to new pos, extruding.
G0 X73.992 Y145.318 ; non-extrude movement 
G1 X73.326 Y145.318 E31.213 ; move to new pos, extruding.
G0 X69.326 Y145.318 ; non-extrude movement 
G1 X67.993 Y145.318 E31.280 ; move to new pos, extruding.
G0 X63.993 Y145.318 ; non-extrude movement 
G1 X62.327 Y145.318 E31.363 ; move to new pos, extruding.
G0 X57.660 Y145.318 ; non-extrude movement 
G1 X56.327 Y145.318 E31.430 ; move to new pos, extruding.
G0 X49.661 Y145.318 ; non-extrude movement 
G1 X48.328 Y145.318 E31.496 ; move to new pos, extruding.
G0 X36.329 Y145.318 ; non-extrude movement 
G1 X34.663 Y145.318 E31.580 ; move to new pos, extruding.
G0 X29.997 Y145.318 ; non-extrude movement 
G1 X29.330 Y145.318 E31.613 ; move to new pos, extruding.
G0 X25.330 Y145.318 ; non-extrude movement 
G1 X23.997 Y145.318 E31.680 ; move to new pos, extruding.
G0 X19.998 Y145.318 ; non-extrude movement 
G1 X18.331 Y145.318 E31.763 ; move to new pos, extruding.
G0 X13.665 Y145.318 ; non-extrude movement 
G1 X12.332 Y145.318 E31.830 ; move to new pos, extruding.
G0 X127.653 Y144.985 ; non-extrude movement 
G1 X126.987 Y144.985 E31.863 ; move to new pos, extruding.
G0 X122.987 Y144.985 ; non-extrude movement 
G1 X121.654 Y144.985 E31.930 ; move to new pos, extruding.
G0 X116.988 Y144.985 ; non-extrude movement 
G1 X116.321 Y144.985 E31.963 ; move to new pos, extruding.
G0 X111.655 Y144.985 ; non-extrude movement 
G1 X110.322 Y144.985 E32.030 ; move to new pos, extruding.
G0 X108.655 Y144.985 ; non-extrude movement 
G1 X107.989 Y144.985 E32.063 ; move to new pos, extruding.
G0 X102.989 Y144.985 ; non-extrude movement 
G1 X101.656 Y144.985 E32.130 ; move to new pos, extruding.
G0 X92.657 Y144.985 ; non-extrude movement 
G1 X91.324 Y144.985 E32.196 ; move to new pos, extruding.
G0 X79.658 Y144.985 ; non-extrude movement 
G1 X78.325 Y144.985 E32.263 ; move to new pos, extruding.
G0 X73.992 Y144.985 ; non-extrude movement 
G1 X73.326 Y144.985 E32.296 ; move to new pos, extruding.
G0 X69.326 Y144.985 ; non-extrude movement 
G1 X67.993 Y144.985 E32.363 ; move to new pos, extruding.
G0 X63.993 Y144.985 ; non-extrude movement 
G1 X62.327 Y144.985 E32.446 ; move to new pos, extruding.
G0 X57.660 Y144.985 ; non-extrude movement 
G1 X56.327 Y144.985 E32.513 ; move to new pos, extruding.
G0 X49.661 Y144.985 ; non-extrude movement 
G1 X48.328 Y144.985 E32.580 ; move to new pos, extruding.
G0 X35.996 Y144.985 ; non-extrude movement 
G1 X34.663 Y144.985 E32.646 ; move to new pos, extruding.
G0 X29.997 Y144.985 ; non-extrude movement 
G1 X29.330 Y144.985 E32.680 ; move to new pos, extruding.
G0 X25.330 Y144.985 ; non-extrude movement 
G1 X23.997 Y144.985 E32.746 ; move to new pos, extruding.
G0 X19.998 Y144.985 ; non-extrude movement 
G1 X18.331 Y144.985 E32.830 ; move to new pos, extruding.
G0 X13.665 Y144.985 ; non-extrude movement 
G1 X12.332 Y144.985 E32.896 ; move to new pos, extruding.
G0 X122.987 Y144.652 ; non-extrude movement 
G1 X121.654 Y144.652 E32.963 ; move to new pos, extruding.
G0 X116.988 Y144.652 ; non-extrude movement 
G1 X116.321 Y144.652 E32.996 ; move to new pos, extruding.
G0 X111.655 Y144.652 ; non-extrude movement 
G1 X109.989 Y144.652 E33.080 ; move to new pos, extruding.
G0 X108.655 Y144.652 ; non-extrude movement 
G1 X107.989 Y144.652 E33.113 ; move to new pos, extruding.
G0 X102.989 Y144.652 ; non-extrude movement 
G1 X101.656 Y144.652 E33.180 ; move to new pos, extruding.
G0 X92.657 Y144.652 ; non-extrude movement 
G1 X91.324 Y144.652 E33.246 ; move to new pos, extruding.
G0 X79.658 Y144.652 ; non-extrude movement 
G1 X78.325 Y144.652 E33.313 ; move to new pos, extruding.
G0 X69.326 Y144.652 ; non-extrude movement 
G1 X67.993 Y144.652 E33.379 ; move to new pos, extruding.
G0 X63.993 Y144.652 ; non-extrude movement 
G1 X62.660 Y144.652 E33.446 ; move to new pos, extruding.
G0 X57.660 Y144.652 ; non-extrude movement 
G1 X56.327 Y144.652 E33.513 ; move to new pos, extruding.
G0 X49.661 Y144.652 ; non-extrude movement 
G1 X48.328 Y144.652 E33.579 ; move to new pos, extruding.
G0 X35.663 Y144.652 ; non-extrude movement 
G1 X34.329 Y144.652 E33.646 ; move to new pos, extruding.
G0 X25.330 Y144.652 ; non-extrude movement 
G1 X23.997 Y144.652 E33.713 ; move to new pos, extruding.
G0 X19.998 Y144.652 ; non-extrude movement 
G1 X18.664 Y144.652 E33.779 ; move to new pos, extruding.
G0 X13.665 Y144.652 ; non-extrude movement 
G1 X12.332 Y144.652 E33.846 ; move to new pos, extruding.
G0 X122.987 Y144.318 ; non-extrude movement 
G1 X121.654 Y144.318 E33.913 ; move to new pos, extruding.
G0 X116.988 Y144.318 ; non-extrude movement 
G1 X116.321 Y144.318 E33.946 ; move to new pos, extruding.
G0 X111.322 Y144.318 ; non-extrude movement 
G1 X109.655 Y144.318 E34.029 ; move to new pos, extruding.
G0 X108.655 Y144.318 ; non-extrude movement 
G1 X107.989 Y144.318 E34.063 ; move to new pos, extruding.
G0 X102.989 Y144.318 ; non-extrude movement 
G1 X101.656 Y144.318 E34.129 ; move to new pos, extruding.
G0 X92.657 Y144.318 ; non-extrude movement 
G1 X91.324 Y144.318 E34.196 ; move to new pos, extruding.
G0 X87.657 Y144.318 ; non-extrude movement 
G1 X86.991 Y144.318 E34.229 ; move to new pos, extruding.
G0 X79.992 Y144.318 ; non-extrude movement 
G1 X78.658 Y144.318 E34.296 ; move to new pos, extruding.
G0 X69.326 Y144.318 ; non-extrude movement 
G1 X67.993 Y144.318 E34.363 ; move to new pos, extruding.
G0 X63.993 Y144.318 ; non-extrude movement 
G1 X62.660 Y144.318 E34.429 ; move to new pos, extruding.
G0 X57.660 Y144.318 ; non-extrude movement 
G1 X56.327 Y144.318 E34.496 ; move to new pos, extruding.
G0 X49.661 Y144.318 ; non-extrude movement 
G1 X48.328 Y144.318 E34.563 ; move to new pos, extruding.
G0 X35.663 Y144.318 ; non-extrude movement 
G1 X34.329 Y144.318 E34.629 ; move to new pos, extruding.
G0 X25.330 Y144.318 ; non-extrude movement 
G1 X23.997 Y144.318 E34.696 ; move to new pos, extruding.
G0 X19.998 Y144.318 ; non-extrude movement 
G1 X18.664 Y144.318 E34.763 ; move to new pos, extruding.
G0 X13.665 Y144.318 ; non-extrude movement 
G1 X12.332 Y144.318 E34.829 ; move to new pos, extruding.
G0 X122.987 Y143.985 ; non-extrude movement 
G1 X121.654 Y143.985 E34.896 ; move to new pos, extruding.
G0 X116.988 Y143.985 ; non-extrude movement 
G1 X116.321 Y143.985 E34.929 ; move to new pos, extruding.
G0 X110.988 Y143.985 ; non-extrude movement 
G1 X109.655 Y143.985 E34.996 ; move to new pos, extruding.
G0 X108.655 Y143.985 ; non-extrude movement 
G1 X107.989 Y143.985 E35.029 ; move to new pos, extruding.
G0 X102.989 Y143.985 ; non-extrude movement 
G1 X101.656 Y143.985 E35.096 ; move to new pos, extruding.
G0 X92.657 Y143.985 ; non-extrude movement 
G1 X91.324 Y143.985 E35.163 ; move to new pos, extruding.
G0 X87.657 Y143.985 ; non-extrude movement 
G1 X86.991 Y143.985 E35.196 ; move to new pos, extruding.
G0 X79.992 Y143.985 ; non-extrude movement 
G1 X78.658 Y143.985 E35.263 ; move to new pos, extruding.
G0 X69.326 Y143.985 ; non-extrude movement 
G1 X67.993 Y143.985 E35.329 ; move to new pos, extruding.
G0 X63.993 Y143.985 ; non-extrude movement 
G1 X62.660 Y143.985 E35.396 ; move to new pos, extruding.
G0 X57.660 Y143.985 ; non-extrude movement 
G1 X56.327 Y143.985 E35.463 ; move to new pos, extruding.
G0 X49.661 Y143.985 ; non-extrude movement 
G1 X48.328 Y143.985 E35.529 ; move to new pos, extruding.
G0 X41.995 Y143.985 ; non-extrude movement 
G1 X41.329 Y143.985 E35.563 ; move to new pos, extruding.
G0 X35.663 Y143.985 ; non-extrude movement 
G1 X34.329 Y143.985 E35.629 ; move to new pos, extruding.
G0 X25.330 Y143.985 ; non-extrude movement 
G1 X23.997 Y143.985 E35.696 ; move to new pos, extruding.
G0 X19.998 Y143.985 ; non-extrude movement 
G1 X18.664 Y143.985 E35.763 ; move to new pos, extruding.
G0 X13.665 Y143.985 ; non-extrude movement 
G1 X12.332 Y143.985 E35.829 ; move to new pos, extruding.
G0 X129.320 Y143.652 ; non-extrude movement 
G1 X128.653 Y143.652 E35.863 ; move to new pos, extruding.
G0 X122.987 Y143.652 ; non-extrude movement 
G1 X121.654 Y143.652 E35.929 ; move to new pos, extruding.
G0 X116.988 Y143.652 ; non-extrude movement 
G1 X116.321 Y143.652 E35.963 ; move to new pos, extruding.
G0 X110.655 Y143.652 ; non-extrude movement 
G1 X109.322 Y143.652 E36.029 ; move to new pos, extruding.
G1 X107.989 Y143.652 E36.096 ; move to new pos, extruding.
G0 X102.989 Y143.652 ; non-extrude movement 
G1 X101.656 Y143.652 E36.163 ; move to new pos, extruding.
G0 X92.657 Y143.652 ; non-extrude movement 
G1 X91.324 Y143.652 E36.229 ; move to new pos, extruding.
G0 X87.657 Y143.652 ; non-extrude movement 
G1 X86.658 Y143.652 E36.279 ; move to new pos, extruding.
G0 X79.992 Y143.652 ; non-extrude movement 
G1 X78.992 Y143.652 E36.329 ; move to new pos, extruding.
G0 X75.659 Y143.652 ; non-extrude movement 
G1 X74.992 Y143.652 E36.363 ; move to new pos, extruding.
G0 X69.326 Y143.652 ; non-extrude movement 
G1 X67.993 Y143.652 E36.429 ; move to new pos, extruding.
G0 X63.993 Y143.652 ; non-extrude movement 
G1 X62.327 Y143.652 E36.513 ; move to new pos, extruding.
G0 X57.660 Y143.652 ; non-extrude movement 
G1 X56.327 Y143.652 E36.579 ; move to new pos, extruding.
G0 X53.661 Y143.652 ; non-extrude movement 
G0 X49.661 Y143.652 ; non-extrude movement 
G1 X48.328 Y143.652 E36.646 ; move to new pos, extruding.
G0 X44.662 Y143.652 ; non-extrude movement 
G1 X43.995 Y143.652 E36.679 ; move to new pos, extruding.
G0 X41.995 Y143.652 ; non-extrude movement 
G1 X41.329 Y143.652 E36.712 ; move to new pos, extruding.
G0 X35.663 Y143.652 ; non-extrude movement 
G1 X34.663 Y143.652 E36.762 ; move to new pos, extruding.
G0 X31.663 Y143.652 ; non-extrude movement 
G1 X30.996 Y143.652 E36.796 ; move to new pos, extruding.
G0 X25.330 Y143.652 ; non-extrude movement 
G1 X23.997 Y143.652 E36.862 ; move to new pos, extruding.
G0 X19.998 Y143.652 ; non-extrude movement 
G1 X18.331 Y143.652 E36.946 ; move to new pos, extruding.
G0 X13.665 Y143.652 ; non-extrude movement 
G1 X12.332 Y143.652 E37.012 ; move to new pos, extruding.
G0 X129.320 Y143.319 ; non-extrude movement 
G1 X128.653 Y143.319 E37.046 ; move to new pos, extruding.
G0 X122.987 Y143.319 ; non-extrude movement 
G1 X121.654 Y143.319 E37.112 ; move to new pos, extruding.
G0 X116.988 Y143.319 ; non-extrude movement 
G1 X116.321 Y143.319 E37.146 ; move to new pos, extruding.
G0 X110.655 Y143.319 ; non-extrude movement 
G1 X107.989 Y143.319 E37.279 ; move to new pos, extruding.
G0 X102.989 Y143.319 ; non-extrude movement 
G1 X101.656 Y143.319 E37.346 ; move to new pos, extruding.
G0 X92.657 Y143.319 ; non-extrude movement 
G1 X91.324 Y143.319 E37.412 ; move to new pos, extruding.
G0 X87.657 Y143.319 ; non-extrude movement 
G1 X86.658 Y143.319 E37.462 ; move to new pos, extruding.
G0 X80.325 Y143.319 ; non-extrude movement 
G1 X79.325 Y143.319 E37.512 ; move to new pos, extruding.
G0 X75.659 Y143.319 ; non-extrude movement 
G1 X74.992 Y143.319 E37.546 ; move to new pos, extruding.
G0 X69.326 Y143.319 ; non-extrude movement 
G1 X67.993 Y143.319 E37.612 ; move to new pos, extruding.
G0 X63.660 Y143.319 ; non-extrude movement 
G1 X62.327 Y143.319 E37.679 ; move to new pos, extruding.
G0 X57.660 Y143.319 ; non-extrude movement 
G1 X56.327 Y143.319 E37.746 ; move to new pos, extruding.
G0 X53.661 Y143.319 ; non-extrude movement 
G0 X49.661 Y143.319 ; non-extrude movement 
G1 X48.328 Y143.319 E37.812 ; move to new pos, extruding.
G0 X44.662 Y143.319 ; non-extrude movement 
G1 X43.995 Y143.319 E37.846 ; move to new pos, extruding.
G0 X41.995 Y143.319 ; non-extrude movement 
G1 X40.995 Y143.319 E37.896 ; move to new pos, extruding.
G0 X35.663 Y143.319 ; non-extrude movement 
G1 X34.663 Y143.319 E37.946 ; move to new pos, extruding.
G0 X31.663 Y143.319 ; non-extrude movement 
G1 X30.996 Y143.319 E37.979 ; move to new pos, extruding.
G0 X25.330 Y143.319 ; non-extrude movement 
G1 X23.997 Y143.319 E38.046 ; move to new pos, extruding.
G0 X19.664 Y143.319 ; non-extrude movement 
G1 X18.331 Y143.319 E38.112 ; move to new pos, extruding.
G0 X13.665 Y143.319 ; non-extrude movement 
G1 X12.332 Y143.319 E38.179 ; move to new pos, extruding.
G0 X129.320 Y142.985 ; non-extrude movement 
G1 X128.653 Y142.985 E38.212 ; move to new pos, extruding.
G0 X122.987 Y142.985 ; non-extrude movement 
G1 X121.654 Y142.985 E38.279 ; move to new pos, extruding.
G0 X116.988 Y142.985 ; non-extrude movement 
G1 X116.321 Y142.985 E38.312 ; move to new pos, extruding.
G0 X110.322 Y142.985 ; non-extrude movement 
G1 X107.989 Y142.985 E38.429 ; move to new pos, extruding.
G0 X102.989 Y142.985 ; non-extrude movement 
G1 X101.656 Y142.985 E38.496 ; move to new pos, extruding.
G0 X92.657 Y142.985 ; non-extrude movement 
G1 X91.324 Y142.985 E38.562 ; move to new pos, extruding.
G0 X87.657 Y142.985 ; non-extrude movement 
G1 X86.324 Y142.985 E38.629 ; move to new pos, extruding.
G0 X80.658 Y142.985 ; non-extrude movement 
G1 X79.325 Y142.985 E38.696 ; move to new pos, extruding.
G0 X75.659 Y142.985 ; non-extrude movement 
G1 X74.992 Y142.985 E38.729 ; move to new pos, extruding.
G0 X69.326 Y142.985 ; non-extrude movement 
G1 X67.993 Y142.985 E38.796 ; move to new pos, extruding.
G0 X63.660 Y142.985 ; non-extrude movement 
G1 X62.327 Y142.985 E38.862 ; move to new pos, extruding.
G0 X57.660 Y142.985 ; non-extrude movement 
G1 X56.327 Y142.985 E38.929 ; move to new pos, extruding.
G0 X53.661 Y142.985 ; non-extrude movement 
G0 X49.661 Y142.985 ; non-extrude movement 
G1 X48.328 Y142.985 E38.996 ; move to new pos, extruding.
G0 X44.662 Y142.985 ; non-extrude movement 
G1 X43.995 Y142.985 E39.029 ; move to new pos, extruding.
G0 X41.995 Y142.985 ; non-extrude movement 
G1 X40.995 Y142.985 E39.079 ; move to new pos, extruding.
G0 X35.663 Y142.985 ; non-extrude movement 
G1 X34.663 Y142.985 E39.129 ; move to new pos, extruding.
G0 X31.663 Y142.985 ; non-extrude movement 
G1 X30.996 Y142.985 E39.162 ; move to new pos, extruding.
G0 X25.330 Y142.985 ; non-extrude movement 
G1 X23.997 Y142.985 E39.229 ; move to new pos, extruding.
G0 X19.664 Y142.985 ; non-extrude movement 
G1 X18.331 Y142.985 E39.296 ; move to new pos, extruding.
G0 X13.665 Y142.985 ; non-extrude movement 
G1 X12.332 Y142.985 E39.362 ; move to new pos, extruding.
G0 X129.320 Y142.652 ; non-extrude movement 
G1 X128.653 Y142.652 E39.396 ; move to new pos, extruding.
G0 X122.987 Y142.652 ; non-extrude movement 
G1 X121.654 Y142.652 E39.462 ; move to new pos, extruding.
G0 X116.988 Y142.652 ; non-extrude movement 
G1 X116.321 Y142.652 E39.496 ; move to new pos, extruding.
G0 X109.989 Y142.652 ; non-extrude movement 
G1 X107.989 Y142.652 E39.596 ; move to new pos, extruding.
G0 X102.989 Y142.652 ; non-extrude movement 
G1 X101.656 Y142.652 E39.662 ; move to new pos, extruding.
G0 X92.657 Y142.652 ; non-extrude movement 
G1 X91.324 Y142.652 E39.729 ; move to new pos, extruding.
G0 X87.657 Y142.652 ; non-extrude movement 
G1 X85.991 Y142.652 E39.812 ; move to new pos, extruding.
G0 X80.658 Y142.652 ; non-extrude movement 
G1 X79.658 Y142.652 E39.862 ; move to new pos, extruding.
G0 X75.659 Y142.652 ; non-extrude movement 
G1 X74.992 Y142.652 E39.896 ; move to new pos, extruding.
G0 X69.326 Y142.652 ; non-extrude movement 
G1 X67.993 Y142.652 E39.962 ; move to new pos, extruding.
G0 X63.327 Y142.652 ; non-extrude movement 
G1 X61.993 Y142.652 E40.029 ; move to new pos, extruding.
G0 X57.660 Y142.652 ; non-extrude movement 
G1 X56.327 Y142.652 E40.095 ; move to new pos, extruding.
G0 X53.661 Y142.652 ; non-extrude movement 
G0 X49.661 Y142.652 ; non-extrude movement 
G1 X48.328 Y142.652 E40.162 ; move to new pos, extruding.
G0 X44.662 Y142.652 ; non-extrude movement 
G1 X43.995 Y142.652 E40.195 ; move to new pos, extruding.
G0 X41.995 Y142.652 ; non-extrude movement 
G1 X40.662 Y142.652 E40.262 ; move to new pos, extruding.
G0 X35.996 Y142.652 ; non-extrude movement 
G1 X34.996 Y142.652 E40.312 ; move to new pos, extruding.
G0 X31.663 Y142.652 ; non-extrude movement 
G1 X30.996 Y142.652 E40.345 ; move to new pos, extruding.
G0 X25.330 Y142.652 ; non-extrude movement 
G1 X23.997 Y142.652 E40.412 ; move to new pos, extruding.
G0 X19.331 Y142.652 ; non-extrude movement 
G1 X17.998 Y142.652 E40.479 ; move to new pos, extruding.
G0 X13.665 Y142.652 ; non-extrude movement 
G1 X12.332 Y142.652 E40.545 ; move to new pos, extruding.
G0 X129.320 Y142.319 ; non-extrude movement 
G1 X128.653 Y142.319 E40.579 ; move to new pos, extruding.
G0 X122.987 Y142.319 ; non-extrude movement 
G1 X121.654 Y142.319 E40.645 ; move to new pos, extruding.
G0 X116.988 Y142.319 ; non-extrude movement 
G1 X116.321 Y142.319 E40.679 ; move to new pos, extruding.
G0 X109.655 Y142.319 ; non-extrude movement 
G1 X107.989 Y142.319 E40.762 ; move to new pos, extruding.
G0 X102.989 Y142.319 ; non-extrude movement 
G1 X101.656 Y142.319 E40.829 ; move to new pos, extruding.
G0 X92.657 Y142.319 ; non-extrude movement 
G1 X91.324 Y142.319 E40.895 ; move to new pos, extruding.
G0 X87.657 Y142.319 ; non-extrude movement 
G1 X85.658 Y142.319 E40.995 ; move to new pos, extruding.
G0 X81.325 Y142.319 ; non-extrude movement 
G1 X80.325 Y142.319 E41.045 ; move to new pos, extruding.
G0 X75.659 Y142.319 ; non-extrude movement 
G1 X74.992 Y142.319 E41.079 ; move to new pos, extruding.
G0 X69.326 Y142.319 ; non-extrude movement 
G1 X67.993 Y142.319 E41.145 ; move to new pos, extruding.
G0 X62.993 Y142.319 ; non-extrude movement 
G1 X61.660 Y142.319 E41.212 ; move to new pos, extruding.
G0 X57.660 Y142.319 ; non-extrude movement 
G1 X56.327 Y142.319 E41.279 ; move to new pos, extruding.
G0 X53.661 Y142.319 ; non-extrude movement 
G0 X49.661 Y142.319 ; non-extrude movement 
G1 X48.328 Y142.319 E41.345 ; move to new pos, extruding.
G0 X44.662 Y142.319 ; non-extrude movement 
G1 X43.995 Y142.319 E41.379 ; move to new pos, extruding.
G0 X41.995 Y142.319 ; non-extrude movement 
G1 X40.662 Y142.319 E41.445 ; move to new pos, extruding.
G0 X36.329 Y142.319 ; non-extrude movement 
G1 X35.329 Y142.319 E41.495 ; move to new pos, extruding.
G0 X31.663 Y142.319 ; non-extrude movement 
G1 X30.996 Y142.319 E41.529 ; move to new pos, extruding.
G0 X25.330 Y142.319 ; non-extrude movement 
G1 X23.997 Y142.319 E41.595 ; move to new pos, extruding.
G0 X18.998 Y142.319 ; non-extrude movement 
G1 X17.664 Y142.319 E41.662 ; move to new pos, extruding.
G0 X13.665 Y142.319 ; non-extrude movement 
G1 X12.332 Y142.319 E41.729 ; move to new pos, extruding.
G0 X129.320 Y141.985 ; non-extrude movement 
G1 X120.321 Y141.985 E42.179 ; move to new pos, extruding.
G0 X118.654 Y141.985 ; non-extrude movement 
G1 X114.655 Y141.985 E42.379 ; move to new pos, extruding.
G0 X109.655 Y141.985 ; non-extrude movement 
G1 X106.656 Y141.985 E42.529 ; move to new pos, extruding.
G0 X104.656 Y141.985 ; non-extrude movement 
G1 X100.323 Y141.985 E42.745 ; move to new pos, extruding.
G0 X94.323 Y141.985 ; non-extrude movement 
G1 X89.991 Y141.985 E42.962 ; move to new pos, extruding.
G0 X87.657 Y141.985 ; non-extrude movement 
G1 X84.991 Y141.985 E43.095 ; move to new pos, extruding.
G0 X81.658 Y141.985 ; non-extrude movement 
G1 X80.658 Y141.985 E43.145 ; move to new pos, extruding.
G0 X75.659 Y141.985 ; non-extrude movement 
G1 X66.660 Y141.985 E43.595 ; move to new pos, extruding.
G0 X62.327 Y141.985 ; non-extrude movement 
G1 X54.994 Y141.985 E43.962 ; move to new pos, extruding.
G0 X53.661 Y141.985 ; non-extrude movement 
G1 X43.995 Y141.985 E44.445 ; move to new pos, extruding.
G0 X41.995 Y141.985 ; non-extrude movement 
G1 X39.996 Y141.985 E44.545 ; move to new pos, extruding.
G0 X36.663 Y141.985 ; non-extrude movement 
G1 X35.663 Y141.985 E44.595 ; move to new pos, extruding.
G0 X31.663 Y141.985 ; non-extrude movement 
G1 X22.664 Y141.985 E45.045 ; move to new pos, extruding.
G0 X18.331 Y141.985 ; non-extrude movement 
G1 X10.998 Y141.985 E45.412 ; move to new pos, extruding.
G0 X129.320 Y141.652 ; non-extrude movement 
G1 X120.321 Y141.652 E45.862 ; move to new pos, extruding.
G0 X118.654 Y141.652 ; non-extrude movement 
G1 X114.655 Y141.652 E46.062 ; move to new pos, extruding.
G0 X109.322 Y141.652 ; non-extrude movement 
G1 X106.656 Y141.652 E46.195 ; move to new pos, extruding.
G0 X104.656 Y141.652 ; non-extrude movement 
G1 X100.323 Y141.652 E46.412 ; move to new pos, extruding.
G0 X94.323 Y141.652 ; non-extrude movement 
G1 X89.991 Y141.652 E46.628 ; move to new pos, extruding.
G0 X86.324 Y141.652 ; non-extrude movement 
G1 X81.325 Y141.652 E46.878 ; move to new pos, extruding.
G0 X75.659 Y141.652 ; non-extrude movement 
G1 X66.660 Y141.652 E47.328 ; move to new pos, extruding.
G0 X60.993 Y141.652 ; non-extrude movement 
G1 X54.994 Y141.652 E47.628 ; move to new pos, extruding.
G0 X53.661 Y141.652 ; non-extrude movement 
G1 X43.995 Y141.652 E48.111 ; move to new pos, extruding.
G0 X40.662 Y141.652 ; non-extrude movement 
G1 X36.329 Y141.652 E48.328 ; move to new pos, extruding.
G0 X31.663 Y141.652 ; non-extrude movement 
G1 X22.664 Y141.652 E48.778 ; move to new pos, extruding.
G0 X16.998 Y141.652 ; non-extrude movement 
G1 X10.998 Y141.652 E49.078 ; move to new pos, extruding.
G0 X83.991 Y141.319 ; non-extrude movement 
G1 X82.991 Y141.319 E49.128 ; move to new pos, extruding.
G0 X38.662 Y141.319 ; non-extrude movement 
G1 X37.996 Y141.319 E49.161 ; move to new pos, extruding.
G0 X103.989 Y134.319 ; non-extrude movement 
G1 X103.323 Y134.319 E49.195 ; move to new pos, extruding.
G0 X51.328 Y134.319 ; non-extrude movement 
G1 X50.661 Y134.319 E49.228 ; move to new pos, extruding.
G0 X147.318 Y133.986 ; non-extrude movement 
G1 X142.985 Y133.986 E49.445 ; move to new pos, extruding.
G0 X140.652 Y133.986 ; non-extrude movement 
G1 X131.653 Y133.986 E49.895 ; move to new pos, extruding.
G0 X129.320 Y133.986 ; non-extrude movement 
G1 X120.321 Y133.986 E50.344 ; move to new pos, extruding.
G0 X118.988 Y133.986 ; non-extrude movement 
G1 X109.989 Y133.986 E50.794 ; move to new pos, extruding.
G0 X105.989 Y133.986 ; non-extrude movement 
G1 X100.989 Y133.986 E51.044 ; move to new pos, extruding.
G0 X95.323 Y133.986 ; non-extrude movement 
G1 X90.990 Y133.986 E51.261 ; move to new pos, extruding.
G0 X88.991 Y133.986 ; non-extrude movement 
G1 X84.991 Y133.986 E51.461 ; move to new pos, extruding.
G0 X80.658 Y133.986 ; non-extrude movement 
G1 X77.658 Y133.986 E51.611 ; move to new pos, extruding.
G0 X76.325 Y133.986 ; non-extrude movement 
G1 X67.326 Y133.986 E52.061 ; move to new pos, extruding.
G0 X59.660 Y133.986 ; non-extrude movement 
G1 X54.661 Y133.986 E52.311 ; move to new pos, extruding.
G0 X51.328 Y133.986 ; non-extrude movement 
G1 X50.328 Y133.986 E52.361 ; move to new pos, extruding.
G0 X44.662 Y133.986 ; non-extrude movement 
G1 X40.995 Y133.986 E52.544 ; move to new pos, extruding.
G0 X38.996 Y133.986 ; non-extrude movement 
G1 X34.663 Y133.986 E52.761 ; move to new pos, extruding.
G0 X28.330 Y133.986 ; non-extrude movement 
G1 X23.664 Y133.986 E52.994 ; move to new pos, extruding.
G0 X15.998 Y133.986 ; non-extrude movement 
G1 X10.998 Y133.986 E53.244 ; move to new pos, extruding.
G0 X147.318 Y133.653 ; non-extrude movement 
G1 X142.985 Y133.653 E53.461 ; move to new pos, extruding.
G0 X140.652 Y133.653 ; non-extrude movement 
G1 X131.653 Y133.653 E53.911 ; move to new pos, extruding.
G0 X129.320 Y133.653 ; non-extrude movement 
G1 X120.321 Y133.653 E54.361 ; move to new pos, extruding.
G0 X118.988 Y133.653 ; non-extrude movement 
G1 X109.989 Y133.653 E54.811 ; move to new pos, extruding.
G0 X106.656 Y133.653 ; non-extrude movement 
G1 X105.322 Y133.653 E54.877 ; move to new pos, extruding.
G0 X101.989 Y133.653 ; non-extrude movement 
G1 X99.990 Y133.653 E54.977 ; move to new pos, extruding.
G0 X95.323 Y133.653 ; non-extrude movement 
G1 X90.990 Y133.653 E55.194 ; move to new pos, extruding.
G0 X88.991 Y133.653 ; non-extrude movement 
G1 X84.991 Y133.653 E55.394 ; move to new pos, extruding.
G0 X80.658 Y133.653 ; non-extrude movement 
G1 X77.658 Y133.653 E55.544 ; move to new pos, extruding.
G0 X76.325 Y133.653 ; non-extrude movement 
G1 X67.326 Y133.653 E55.994 ; move to new pos, extruding.
G0 X61.660 Y133.653 ; non-extrude movement 
G1 X54.661 Y133.653 E56.344 ; move to new pos, extruding.
G0 X51.328 Y133.653 ; non-extrude movement 
G1 X49.995 Y133.653 E56.411 ; move to new pos, extruding.
G0 X44.662 Y133.653 ; non-extrude movement 
G1 X40.995 Y133.653 E56.594 ; move to new pos, extruding.
G0 X38.996 Y133.653 ; non-extrude movement 
G1 X34.663 Y133.653 E56.810 ; move to new pos, extruding.
G0 X28.330 Y133.653 ; non-extrude movement 
G1 X23.664 Y133.653 E57.044 ; move to new pos, extruding.
G0 X17.998 Y133.653 ; non-extrude movement 
G1 X10.998 Y133.653 E57.394 ; move to new pos, extruding.
G0 X145.652 Y133.320 ; non-extrude movement 
G1 X144.318 Y133.320 E57.460 ; move to new pos, extruding.
G0 X140.652 Y133.320 ; non-extrude movement 
G1 X139.986 Y133.320 E57.494 ; move to new pos, extruding.
G0 X134.319 Y133.320 ; non-extrude movement 
G1 X132.986 Y133.320 E57.560 ; move to new pos, extruding.
G0 X129.320 Y133.320 ; non-extrude movement 
G1 X128.653 Y133.320 E57.594 ; move to new pos, extruding.
G0 X122.987 Y133.320 ; non-extrude movement 
G1 X121.654 Y133.320 E57.660 ; move to new pos, extruding.
G0 X118.988 Y133.320 ; non-extrude movement 
G1 X118.321 Y133.320 E57.694 ; move to new pos, extruding.
G0 X112.655 Y133.320 ; non-extrude movement 
G1 X111.322 Y133.320 E57.760 ; move to new pos, extruding.
G0 X106.989 Y133.320 ; non-extrude movement 
G1 X105.656 Y133.320 E57.827 ; move to new pos, extruding.
G0 X101.323 Y133.320 ; non-extrude movement 
G1 X99.990 Y133.320 E57.894 ; move to new pos, extruding.
G0 X93.990 Y133.320 ; non-extrude movement 
G1 X92.657 Y133.320 E57.960 ; move to new pos, extruding.
G0 X87.657 Y133.320 ; non-extrude movement 
G1 X86.324 Y133.320 E58.027 ; move to new pos, extruding.
G0 X79.325 Y133.320 ; non-extrude movement 
G1 X78.658 Y133.320 E58.060 ; move to new pos, extruding.
G0 X76.325 Y133.320 ; non-extrude movement 
G1 X75.659 Y133.320 E58.094 ; move to new pos, extruding.
G0 X69.993 Y133.320 ; non-extrude movement 
G1 X68.659 Y133.320 E58.160 ; move to new pos, extruding.
G0 X62.327 Y133.320 ; non-extrude movement 
G1 X60.993 Y133.320 E58.227 ; move to new pos, extruding.
G0 X57.327 Y133.320 ; non-extrude movement 
G1 X55.994 Y133.320 E58.294 ; move to new pos, extruding.
G0 X51.328 Y133.320 ; non-extrude movement 
G1 X49.995 Y133.320 E58.360 ; move to new pos, extruding.
G0 X42.995 Y133.320 ; non-extrude movement 
G1 X42.329 Y133.320 E58.394 ; move to new pos, extruding.
G0 X37.329 Y133.320 ; non-extrude movement 
G1 X35.996 Y133.320 E58.460 ; move to new pos, extruding.
G0 X26.330 Y133.320 ; non-extrude movement 
G1 X24.997 Y133.320 E58.527 ; move to new pos, extruding.
G0 X18.664 Y133.320 ; non-extrude movement 
G1 X17.331 Y133.320 E58.594 ; move to new pos, extruding.
G0 X13.665 Y133.320 ; non-extrude movement 
G1 X12.332 Y133.320 E58.660 ; move to new pos, extruding.
G0 X145.652 Y132.986 ; non-extrude movement 
G1 X144.318 Y132.986 E58.727 ; move to new pos, extruding.
G0 X140.652 Y132.986 ; non-extrude movement 
G1 X139.986 Y132.986 E58.760 ; move to new pos, extruding.
G0 X134.319 Y132.986 ; non-extrude movement 
G1 X132.986 Y132.986 E58.827 ; move to new pos, extruding.
G0 X129.320 Y132.986 ; non-extrude movement 
G1 X128.653 Y132.986 E58.860 ; move to new pos, extruding.
G0 X122.987 Y132.986 ; non-extrude movement 
G1 X121.654 Y132.986 E58.927 ; move to new pos, extruding.
G0 X118.988 Y132.986 ; non-extrude movement 
G1 X118.321 Y132.986 E58.960 ; move to new pos, extruding.
G0 X112.655 Y132.986 ; non-extrude movement 
G1 X111.322 Y132.986 E59.027 ; move to new pos, extruding.
G0 X107.322 Y132.986 ; non-extrude movement 
G1 X105.989 Y132.986 E59.094 ; move to new pos, extruding.
G0 X100.989 Y132.986 ; non-extrude movement 
G1 X99.990 Y132.986 E59.144 ; move to new pos, extruding.
G0 X93.990 Y132.986 ; non-extrude movement 
G1 X92.657 Y132.986 E59.210 ; move to new pos, extruding.
G0 X87.657 Y132.986 ; non-extrude movement 
G1 X86.324 Y132.986 E59.277 ; move to new pos, extruding.
G0 X79.658 Y132.986 ; non-extrude movement 
G1 X78.992 Y132.986 E59.310 ; move to new pos, extruding.
G0 X76.325 Y132.986 ; non-extrude movement 
G1 X75.659 Y132.986 E59.344 ; move to new pos, extruding.
G0 X69.993 Y132.986 ; non-extrude movement 
G1 X68.659 Y132.986 E59.410 ; move to new pos, extruding.
G0 X62.993 Y132.986 ; non-extrude movement 
G1 X61.660 Y132.986 E59.477 ; move to new pos, extruding.
G0 X57.327 Y132.986 ; non-extrude movement 
G1 X55.994 Y132.986 E59.544 ; move to new pos, extruding.
G0 X51.328 Y132.986 ; non-extrude movement 
G1 X49.661 Y132.986 E59.627 ; move to new pos, extruding.
G0 X42.995 Y132.986 ; non-extrude movement 
G1 X42.329 Y132.986 E59.660 ; move to new pos, extruding.
G0 X37.329 Y132.986 ; non-extrude movement 
G1 X35.996 Y132.986 E59.727 ; move to new pos, extruding.
G0 X26.330 Y132.986 ; non-extrude movement 
G1 X24.997 Y132.986 E59.794 ; move to new pos, extruding.
G0 X19.331 Y132.986 ; non-extrude movement 
G1 X17.998 Y132.986 E59.860 ; move to new pos, extruding.
G0 X13.665 Y132.986 ; non-extrude movement 
G1 X12.332 Y132.986 E59.927 ; move to new pos, extruding.
G0 X145.652 Y132.653 ; non-extrude movement 
G1 X144.318 Y132.653 E59.994 ; move to new pos, extruding.
G0 X140.652 Y132.653 ; non-extrude movement 
G1 X139.986 Y132.653 E60.027 ; move to new pos, extruding.
G0 X134.319 Y132.653 ; non-extrude movement 
G1 X132.986 Y132.653 E60.093 ; move to new pos, extruding.
G0 X129.320 Y132.653 ; non-extrude movement 
G1 X128.653 Y132.653 E60.127 ; move to new pos, extruding.
G0 X122.987 Y132.653 ; non-extrude movement 
G1 X121.654 Y132.653 E60.193 ; move to new pos, extruding.
G0 X118.988 Y132.653 ; non-extrude movement 
G1 X118.321 Y132.653 E60.227 ; move to new pos, extruding.
G0 X112.655 Y132.653 ; non-extrude movement 
G1 X111.322 Y132.653 E60.293 ; move to new pos, extruding.
G0 X107.322 Y132.653 ; non-extrude movement 
G1 X106.322 Y132.653 E60.343 ; move to new pos, extruding.
G0 X100.989 Y132.653 ; non-extrude movement 
G1 X99.990 Y132.653 E60.393 ; move to new pos, extruding.
G0 X93.990 Y132.653 ; non-extrude movement 
G1 X92.657 Y132.653 E60.460 ; move to new pos, extruding.
G0 X87.657 Y132.653 ; non-extrude movement 
G1 X85.991 Y132.653 E60.543 ; move to new pos, extruding.
G0 X79.658 Y132.653 ; non-extrude movement 
G1 X78.992 Y132.653 E60.577 ; move to new pos, extruding.
G0 X76.325 Y132.653 ; non-extrude movement 
G1 X75.659 Y132.653 E60.610 ; move to new pos, extruding.
G0 X69.993 Y132.653 ; non-extrude movement 
G1 X68.659 Y132.653 E60.677 ; move to new pos, extruding.
G0 X63.327 Y132.653 ; non-extrude movement 
G1 X61.993 Y132.653 E60.743 ; move to new pos, extruding.
G0 X57.327 Y132.653 ; non-extrude movement 
G1 X55.994 Y132.653 E60.810 ; move to new pos, extruding.
G0 X51.328 Y132.653 ; non-extrude movement 
G1 X49.328 Y132.653 E60.910 ; move to new pos, extruding.
G0 X42.995 Y132.653 ; non-extrude movement 
G1 X42.329 Y132.653 E60.943 ; move to new pos, extruding.
G0 X37.329 Y132.653 ; non-extrude movement 
G1 X35.996 Y132.653 E61.010 ; move to new pos, extruding.
G0 X26.330 Y132.653 ; non-extrude movement 
G1 X24.997 Y132.653 E61.077 ; move to new pos, extruding.
G0 X19.664 Y132.653 ; non-extrude movement 
G1 X18.331 Y132.653 E61.143 ; move to new pos, extruding.
G0 X13.665 Y132.653 ; non-extrude movement 
G1 X12.332 Y132.653 E61.210 ; move to new pos, extruding.
G0 X145.652 Y132.320 ; non-extrude movement 
G1 X144.318 Y132.320 E61.277 ; move to new pos, extruding.
G0 X140.652 Y132.320 ; non-extrude movement 
G1 X139.986 Y132.320 E61.310 ; move to new pos, extruding.
G0 X134.319 Y132.320 ; non-extrude movement 
G1 X132.986 Y132.320 E61.377 ; move to new pos, extruding.
G0 X129.320 Y132.320 ; non-extrude movement 
G1 X128.653 Y132.320 E61.410 ; move to new pos, extruding.
G0 X122.987 Y132.320 ; non-extrude movement 
G1 X121.654 Y132.320 E61.477 ; move to new pos, extruding.
G0 X118.988 Y132.320 ; non-extrude movement 
G1 X118.321 Y132.320 E61.510 ; move to new pos, extruding.
G0 X112.655 Y132.320 ; non-extrude movement 
G1 X111.322 Y132.320 E61.577 ; move to new pos, extruding.
G0 X107.655 Y132.320 ; non-extrude movement 
G1 X106.322 Y132.320 E61.643 ; move to new pos, extruding.
G0 X100.656 Y132.320 ; non-extrude movement 
G1 X99.990 Y132.320 E61.677 ; move to new pos, extruding.
G0 X93.990 Y132.320 ; non-extrude movement 
G1 X92.657 Y132.320 E61.743 ; move to new pos, extruding.
G0 X87.324 Y132.320 ; non-extrude movement 
G1 X85.991 Y132.320 E61.810 ; move to new pos, extruding.
G0 X79.658 Y132.320 ; non-extrude movement 
G0 X76.325 Y132.320 ; non-extrude movement 
G1 X75.659 Y132.320 E61.843 ; move to new pos, extruding.
G0 X69.993 Y132.320 ; non-extrude movement 
G1 X68.659 Y132.320 E61.910 ; move to new pos, extruding.
G0 X63.660 Y132.320 ; non-extrude movement 
G1 X62.327 Y132.320 E61.977 ; move to new pos, extruding.
G0 X57.327 Y132.320 ; non-extrude movement 
G1 X55.994 Y132.320 E62.043 ; move to new pos, extruding.
G0 X51.328 Y132.320 ; non-extrude movement 
G1 X48.995 Y132.320 E62.160 ; move to new pos, extruding.
G0 X42.995 Y132.320 ; non-extrude movement 
G1 X42.329 Y132.320 E62.193 ; move to new pos, extruding.
G0 X37.329 Y132.320 ; non-extrude movement 
G1 X35.996 Y132.320 E62.260 ; move to new pos, extruding.
G0 X26.330 Y132.320 ; non-extrude movement 
G1 X24.997 Y132.320 E62.327 ; move to new pos, extruding.
G0 X19.998 Y132.320 ; non-extrude movement 
G1 X18.664 Y132.320 E62.393 ; move to new pos, extruding.
G0 X13.665 Y132.320 ; non-extrude movement 
G1 X12.332 Y132.320 E62.460 ; move to new pos, extruding.
G0 X145.652 Y131.986 ; non-extrude movement 
G1 X144.318 Y131.986 E62.527 ; move to new pos, extruding.
G0 X140.652 Y131.986 ; non-extrude movement 
G1 X139.986 Y131.986 E62.560 ; move to new pos, extruding.
G0 X134.319 Y131.986 ; non-extrude movement 
G1 X132.986 Y131.986 E62.627 ; move to new pos, extruding.
G0 X129.320 Y131.986 ; non-extrude movement 
G1 X128.653 Y131.986 E62.660 ; move to new pos, extruding.
G0 X122.987 Y131.986 ; non-extrude movement 
G1 X121.654 Y131.986 E62.727 ; move to new pos, extruding.
G0 X118.988 Y131.986 ; non-extrude movement 
G1 X118.321 Y131.986 E62.760 ; move to new pos, extruding.
G0 X112.655 Y131.986 ; non-extrude movement 
G1 X111.322 Y131.986 E62.827 ; move to new pos, extruding.
G0 X107.655 Y131.986 ; non-extrude movement 
G1 X106.656 Y131.986 E62.877 ; move to new pos, extruding.
G0 X100.656 Y131.986 ; non-extrude movement 
G1 X99.990 Y131.986 E62.910 ; move to new pos, extruding.
G0 X93.990 Y131.986 ; non-extrude movement 
G1 X92.657 Y131.986 E62.977 ; move to new pos, extruding.
G0 X87.324 Y131.986 ; non-extrude movement 
G1 X85.991 Y131.986 E63.043 ; move to new pos, extruding.
G0 X79.992 Y131.986 ; non-extrude movement 
G1 X79.325 Y131.986 E63.077 ; move to new pos, extruding.
G0 X76.325 Y131.986 ; non-extrude movement 
G1 X75.659 Y131.986 E63.110 ; move to new pos, extruding.
G0 X69.993 Y131.986 ; non-extrude movement 
G1 X68.659 Y131.986 E63.177 ; move to new pos, extruding.
G0 X63.993 Y131.986 ; non-extrude movement 
G1 X62.660 Y131.986 E63.243 ; move to new pos, extruding.
G0 X57.327 Y131.986 ; non-extrude movement 
G1 X55.994 Y131.986 E63.310 ; move to new pos, extruding.
G0 X51.328 Y131.986 ; non-extrude movement 
G1 X48.995 Y131.986 E63.426 ; move to new pos, extruding.
G0 X42.995 Y131.986 ; non-extrude movement 
G1 X42.329 Y131.986 E63.460 ; move to new pos, extruding.
G0 X37.329 Y131.986 ; non-extrude movement 
G1 X35.996 Y131.986 E63.526 ; move to new pos, extruding.
G0 X26.330 Y131.986 ; non-extrude movement 
G1 X24.997 Y131.986 E63.593 ; move to new pos, extruding.
G0 X20.331 Y131.986 ; non-extrude movement 
G1 X18.998 Y131.986 E63.660 ; move to new pos, extruding.
G0 X13.665 Y131.986 ; non-extrude movement 
G1 X12.332 Y131.986 E63.726 ; move to new pos, extruding.
G0 X145.652 Y131.653 ; non-extrude movement 
G1 X144.318 Y131.653 E63.793 ; move to new pos, extruding.
G0 X134.319 Y131.653 ; non-extrude movement 
G1 X132.986 Y131.653 E63.860 ; move to new pos, extruding.
G0 X122.987 Y131.653 ; non-extrude movement 
G1 X121.654 Y131.653 E63.926 ; move to new pos, extruding.
G0 X118.988 Y131.653 ; non-extrude movement 
G1 X118.321 Y131.653 E63.960 ; move to new pos, extruding.
G0 X112.655 Y131.653 ; non-extrude movement 
G1 X111.322 Y131.653 E64.026 ; move to new pos, extruding.
G0 X107.655 Y131.653 ; non-extrude movement 
G1 X106.656 Y131.653 E64.076 ; move to new pos, extruding.
G0 X100.656 Y131.653 ; non-extrude movement 
G1 X99.990 Y131.653 E64.110 ; move to new pos, extruding.
G0 X93.990 Y131.653 ; non-extrude movement 
G1 X92.657 Y131.653 E64.176 ; move to new pos, extruding.
G0 X86.991 Y131.653 ; non-extrude movement 
G1 X85.658 Y131.653 E64.243 ; move to new pos, extruding.
G0 X79.992 Y131.653 ; non-extrude movement 
G1 X79.325 Y131.653 E64.276 ; move to new pos, extruding.
G0 X69.993 Y131.653 ; non-extrude movement 
G1 X68.659 Y131.653 E64.343 ; move to new pos, extruding.
G0 X64.326 Y131.653 ; non-extrude movement 
G1 X62.993 Y131.653 E64.410 ; move to new pos, extruding.
G0 X57.327 Y131.653 ; non-extrude movement 
G1 X55.994 Y131.653 E64.476 ; move to new pos, extruding.
G0 X51.328 Y131.653 ; non-extrude movement 
G1 X50.661 Y131.653 E64.510 ; move to new pos, extruding.
G1 X48.661 Y131.653 E64.610 ; move to new pos, extruding.
G0 X42.995 Y131.653 ; non-extrude movement 
G1 X42.329 Y131.653 E64.643 ; move to new pos, extruding.
G0 X37.329 Y131.653 ; non-extrude movement 
G1 X35.996 Y131.653 E64.710 ; move to new pos, extruding.
G0 X26.330 Y131.653 ; non-extrude movement 
G1 X24.997 Y131.653 E64.776 ; move to new pos, extruding.
G0 X20.664 Y131.653 ; non-extrude movement 
G1 X19.331 Y131.653 E64.843 ; move to new pos, extruding.
G0 X13.665 Y131.653 ; non-extrude movement 
G1 X12.332 Y131.653 E64.910 ; move to new pos, extruding.
G0 X145.652 Y131.320 ; non-extrude movement 
G1 X144.318 Y131.320 E64.976 ; move to new pos, extruding.
G0 X134.319 Y131.320 ; non-extrude movement 
G1 X132.986 Y131.320 E65.043 ; move to new pos, extruding.
G0 X122.987 Y131.320 ; non-extrude movement 
G1 X121.654 Y131.320 E65.110 ; move to new pos, extruding.
G0 X112.655 Y131.320 ; non-extrude movement 
G1 X111.322 Y131.320 E65.176 ; move to new pos, extruding.
G0 X107.655 Y131.320 ; non-extrude movement 
G1 X106.656 Y131.320 E65.226 ; move to new pos, extruding.
G0 X100.656 Y131.320 ; non-extrude movement 
G1 X99.990 Y131.320 E65.260 ; move to new pos, extruding.
G0 X93.990 Y131.320 ; non-extrude movement 
G1 X92.657 Y131.320 E65.326 ; move to new pos, extruding.
G0 X86.991 Y131.320 ; non-extrude movement 
G1 X85.658 Y131.320 E65.393 ; move to new pos, extruding.
G0 X79.992 Y131.320 ; non-extrude movement 
G0 X69.993 Y131.320 ; non-extrude movement 
G1 X68.659 Y131.320 E65.460 ; move to new pos, extruding.
G0 X64.660 Y131.320 ; non-extrude movement 
G1 X62.993 Y131.320 E65.543 ; move to new pos, extruding.
G0 X57.327 Y131.320 ; non-extrude movement 
G1 X55.994 Y131.320 E65.610 ; move to new pos, extruding.
G0 X51.328 Y131.320 ; non-extrude movement 
G1 X50.661 Y131.320 E65.643 ; move to new pos, extruding.
G1 X48.328 Y131.320 E65.760 ; move to new pos, extruding.
G0 X42.995 Y131.320 ; non-extrude movement 
G1 X42.329 Y131.320 E65.793 ; move to new pos, extruding.
G0 X37.329 Y131.320 ; non-extrude movement 
G1 X35.996 Y131.320 E65.860 ; move to new pos, extruding.
G0 X26.330 Y131.320 ; non-extrude movement 
G1 X24.997 Y131.320 E65.926 ; move to new pos, extruding.
G0 X20.997 Y131.320 ; non-extrude movement 
G1 X19.331 Y131.320 E66.010 ; move to new pos, extruding.
G0 X13.665 Y131.320 ; non-extrude movement 
G1 X12.332 Y131.320 E66.076 ; move to new pos, extruding.
G0 X145.652 Y130.986 ; non-extrude movement 
G1 X144.318 Y130.986 E66.143 ; move to new pos, extruding.
G0 X134.319 Y130.986 ; non-extrude movement 
G1 X132.986 Y130.986 E66.210 ; move to new pos, extruding.
G0 X122.987 Y130.986 ; non-extrude movement 
G1 X121.654 Y130.986 E66.276 ; move to new pos, extruding.
G0 X112.655 Y130.986 ; non-extrude movement 
G1 X111.322 Y130.986 E66.343 ; move to new pos, extruding.
G0 X107.655 Y130.986 ; non-extrude movement 
G1 X106.322 Y130.986 E66.410 ; move to new pos, extruding.
G0 X93.990 Y130.986 ; non-extrude movement 
G1 X92.657 Y130.986 E66.476 ; move to new pos, extruding.
G0 X86.991 Y130.986 ; non-extrude movement 
G1 X85.658 Y130.986 E66.543 ; move to new pos, extruding.
G0 X80.325 Y130.986 ; non-extrude movement 
G1 X79.658 Y130.986 E66.576 ; move to new pos, extruding.
G0 X69.993 Y130.986 ; non-extrude movement 
G1 X68.659 Y130.986 E66.643 ; move to new pos, extruding.
G0 X64.660 Y130.986 ; non-extrude movement 
G1 X63.327 Y130.986 E66.709 ; move to new pos, extruding.
G0 X57.327 Y130.986 ; non-extrude movement 
G1 X55.994 Y130.986 E66.776 ; move to new pos, extruding.
G0 X51.328 Y130.986 ; non-extrude movement 
G1 X50.661 Y130.986 E66.809 ; move to new pos, extruding.
G0 X49.661 Y130.986 ; non-extrude movement 
G1 X47.995 Y130.986 E66.893 ; move to new pos, extruding.
G0 X42.995 Y130.986 ; non-extrude movement 
G1 X42.329 Y130.986 E66.926 ; move to new pos, extruding.
G0 X37.329 Y130.986 ; non-extrude movement 
G1 X35.996 Y130.986 E66.993 ; move to new pos, extruding.
G0 X26.330 Y130.986 ; non-extrude movement 
G1 X24.997 Y130.986 E67.059 ; move to new pos, extruding.
G0 X20.997 Y130.986 ; non-extrude movement 
G1 X19.664 Y130.986 E67.126 ; move to new pos, extruding.
G0 X13.665 Y130.986 ; non-extrude movement 
G1 X12.332 Y130.986 E67.193 ; move to new pos, extruding.
G0 X145.652 Y130.653 ; non-extrude movement 
G1 X144.318 Y130.653 E67.259 ; move to new pos, extruding.
G0 X134.319 Y130.653 ; non-extrude movement 
G1 X132.986 Y130.653 E67.326 ; move to new pos, extruding.
G0 X122.987 Y130.653 ; non-extrude movement 
G1 X121.654 Y130.653 E67.393 ; move to new pos, extruding.
G0 X112.655 Y130.653 ; non-extrude movement 
G1 X111.322 Y130.653 E67.459 ; move to new pos, extruding.
G0 X107.655 Y130.653 ; non-extrude movement 
G1 X106.322 Y130.653 E67.526 ; move to new pos, extruding.
G0 X93.990 Y130.653 ; non-extrude movement 
G1 X92.657 Y130.653 E67.593 ; move to new pos, extruding.
G0 X86.658 Y130.653 ; non-extrude movement 
G1 X79.658 Y130.653 E67.943 ; move to new pos, extruding.
G0 X69.993 Y130.653 ; non-extrude movement 
G1 X68.659 Y130.653 E68.009 ; move to new pos, extruding.
G0 X64.660 Y130.653 ; non-extrude movement 
G1 X63.327 Y130.653 E68.076 ; move to new pos, extruding.
G0 X57.327 Y130.653 ; non-extrude movement 
G1 X55.994 Y130.653 E68.143 ; move to new pos, extruding.
G0 X51.328 Y130.653 ; non-extrude movement 
G1 X50.661 Y130.653 E68.176 ; move to new pos, extruding.
G0 X49.328 Y130.653 ; non-extrude movement 
G1 X47.995 Y130.653 E68.243 ; move to new pos, extruding.
G0 X42.995 Y130.653 ; non-extrude movement 
G1 X42.329 Y130.653 E68.276 ; move to new pos, extruding.
G0 X37.329 Y130.653 ; non-extrude movement 
G1 X35.996 Y130.653 E68.343 ; move to new pos, extruding.
G0 X26.330 Y130.653 ; non-extrude movement 
G1 X24.997 Y130.653 E68.409 ; move to new pos, extruding.
G0 X20.997 Y130.653 ; non-extrude movement 
G1 X19.664 Y130.653 E68.476 ; move to new pos, extruding.
G0 X13.665 Y130.653 ; non-extrude movement 
G1 X12.332 Y130.653 E68.543 ; move to new pos, extruding.
G0 X145.652 Y130.320 ; non-extrude movement 
G1 X144.318 Y130.320 E68.609 ; move to new pos, extruding.
G0 X134.319 Y130.320 ; non-extrude movement 
G1 X132.986 Y130.320 E68.676 ; move to new pos, extruding.
G0 X122.987 Y130.320 ; non-extrude movement 
G1 X121.654 Y130.320 E68.743 ; move to new pos, extruding.
G0 X112.655 Y130.320 ; non-extrude movement 
G1 X111.322 Y130.320 E68.809 ; move to new pos, extruding.
G0 X107.655 Y130.320 ; non-extrude movement 
G1 X106.322 Y130.320 E68.876 ; move to new pos, extruding.
G0 X93.990 Y130.320 ; non-extrude movement 
G1 X92.657 Y130.320 E68.943 ; move to new pos, extruding.
G0 X86.658 Y130.320 ; non-extrude movement 
G1 X79.992 Y130.320 E69.276 ; move to new pos, extruding.
G0 X69.993 Y130.320 ; non-extrude movement 
G1 X68.659 Y130.320 E69.343 ; move to new pos, extruding.
G0 X64.993 Y130.320 ; non-extrude movement 
G1 X63.327 Y130.320 E69.426 ; move to new pos, extruding.
G0 X57.327 Y130.320 ; non-extrude movement 
G1 X55.994 Y130.320 E69.493 ; move to new pos, extruding.
G0 X51.328 Y130.320 ; non-extrude movement 
G1 X50.661 Y130.320 E69.526 ; move to new pos, extruding.
G0 X49.328 Y130.320 ; non-extrude movement 
G1 X47.661 Y130.320 E69.609 ; move to new pos, extruding.
G0 X42.995 Y130.320 ; non-extrude movement 
G1 X42.329 Y130.320 E69.643 ; move to new pos, extruding.
G0 X37.329 Y130.320 ; non-extrude movement 
G1 X35.996 Y130.320 E69.709 ; move to new pos, extruding.
G0 X26.330 Y130.320 ; non-extrude movement 
G1 X24.997 Y130.320 E69.776 ; move to new pos, extruding.
G0 X21.331 Y130.320 ; non-extrude movement 
G1 X19.664 Y130.320 E69.859 ; move to new pos, extruding.
G0 X13.665 Y130.320 ; non-extrude movement 
G1 X12.332 Y130.320 E69.926 ; move to new pos, extruding.
G0 X145.652 Y129.987 ; non-extrude movement 
G1 X144.318 Y129.987 E69.993 ; move to new pos, extruding.
G0 X134.319 Y129.987 ; non-extrude movement 
G1 X132.986 Y129.987 E70.059 ; move to new pos, extruding.
G0 X122.987 Y129.987 ; non-extrude movement 
G1 X121.654 Y129.987 E70.126 ; move to new pos, extruding.
G0 X112.655 Y129.987 ; non-extrude movement 
G1 X111.322 Y129.987 E70.192 ; move to new pos, extruding.
G0 X107.655 Y129.987 ; non-extrude movement 
G1 X105.989 Y129.987 E70.276 ; move to new pos, extruding.
G0 X93.990 Y129.987 ; non-extrude movement 
G1 X92.657 Y129.987 E70.342 ; move to new pos, extruding.
G0 X86.658 Y129.987 ; non-extrude movement 
G1 X84.991 Y129.987 E70.426 ; move to new pos, extruding.
G0 X80.658 Y129.987 ; non-extrude movement 
G1 X79.992 Y129.987 E70.459 ; move to new pos, extruding.
G0 X69.993 Y129.987 ; non-extrude movement 
G1 X68.659 Y129.987 E70.526 ; move to new pos, extruding.
G0 X64.993 Y129.987 ; non-extrude movement 
G1 X63.660 Y129.987 E70.592 ; move to new pos, extruding.
G0 X57.327 Y129.987 ; non-extrude movement 
G1 X55.994 Y129.987 E70.659 ; move to new pos, extruding.
G0 X51.328 Y129.987 ; non-extrude movement 
G1 X50.661 Y129.987 E70.692 ; move to new pos, extruding.
G0 X48.995 Y129.987 ; non-extrude movement 
G1 X47.328 Y129.987 E70.776 ; move to new pos, extruding.
G0 X42.995 Y129.987 ; non-extrude movement 
G1 X42.329 Y129.987 E70.809 ; move to new pos, extruding.
G0 X37.329 Y129.987 ; non-extrude movement 
G1 X35.996 Y129.987 E70.876 ; move to new pos, extruding.
G0 X26.330 Y129.987 ; non-extrude movement 
G1 X24.997 Y129.987 E70.942 ; move to new pos, extruding.
G0 X21.331 Y129.987 ; non-extrude movement 
G1 X19.998 Y129.987 E71.009 ; move to new pos, extruding.
G0 X13.665 Y129.987 ; non-extrude movement 
G1 X12.332 Y129.987 E71.076 ; move to new pos, extruding.
G0 X145.652 Y129.653 ; non-extrude movement 
G1 X144.318 Y129.653 E71.142 ; move to new pos, extruding.
G0 X134.319 Y129.653 ; non-extrude movement 
G1 X132.986 Y129.653 E71.209 ; move to new pos, extruding.
G0 X122.987 Y129.653 ; non-extrude movement 
G1 X121.654 Y129.653 E71.276 ; move to new pos, extruding.
G0 X112.655 Y129.653 ; non-extrude movement 
G1 X111.322 Y129.653 E71.342 ; move to new pos, extruding.
G0 X107.322 Y129.653 ; non-extrude movement 
G1 X105.322 Y129.653 E71.442 ; move to new pos, extruding.
G0 X93.990 Y129.653 ; non-extrude movement 
G1 X92.657 Y129.653 E71.509 ; move to new pos, extruding.
G0 X86.324 Y129.653 ; non-extrude movement 
G1 X84.991 Y129.653 E71.576 ; move to new pos, extruding.
G0 X80.658 Y129.653 ; non-extrude movement 
G0 X69.993 Y129.653 ; non-extrude movement 
G1 X68.659 Y129.653 E71.642 ; move to new pos, extruding.
G0 X64.993 Y129.653 ; non-extrude movement 
G1 X63.660 Y129.653 E71.709 ; move to new pos, extruding.
G0 X57.327 Y129.653 ; non-extrude movement 
G1 X55.994 Y129.653 E71.776 ; move to new pos, extruding.
G0 X51.328 Y129.653 ; non-extrude movement 
G1 X50.661 Y129.653 E71.809 ; move to new pos, extruding.
G0 X48.661 Y129.653 ; non-extrude movement 
G1 X46.995 Y129.653 E71.892 ; move to new pos, extruding.
G0 X42.995 Y129.653 ; non-extrude movement 
G1 X42.329 Y129.653 E71.926 ; move to new pos, extruding.
G0 X37.329 Y129.653 ; non-extrude movement 
G1 X35.996 Y129.653 E71.992 ; move to new pos, extruding.
G0 X26.330 Y129.653 ; non-extrude movement 
G1 X24.997 Y129.653 E72.059 ; move to new pos, extruding.
G0 X21.331 Y129.653 ; non-extrude movement 
G1 X19.998 Y129.653 E72.126 ; move to new pos, extruding.
G0 X13.665 Y129.653 ; non-extrude movement 
G1 X12.332 Y129.653 E72.192 ; move to new pos, extruding.
G0 X145.652 Y129.320 ; non-extrude movement 
G1 X144.318 Y129.320 E72.259 ; move to new pos, extruding.
G0 X138.986 Y129.320 ; non-extrude movement 
G1 X138.319 Y129.320 E72.292 ; move to new pos, extruding.
G0 X134.319 Y129.320 ; non-extrude movement 
G1 X132.986 Y129.320 E72.359 ; move to new pos, extruding.
G0 X127.653 Y129.320 ; non-extrude movement 
G1 X126.987 Y129.320 E72.392 ; move to new pos, extruding.
G0 X122.987 Y129.320 ; non-extrude movement 
G1 X121.654 Y129.320 E72.459 ; move to new pos, extruding.
G0 X112.655 Y129.320 ; non-extrude movement 
G1 X111.322 Y129.320 E72.526 ; move to new pos, extruding.
G0 X107.322 Y129.320 ; non-extrude movement 
G1 X104.322 Y129.320 E72.676 ; move to new pos, extruding.
G0 X93.990 Y129.320 ; non-extrude movement 
G1 X92.657 Y129.320 E72.742 ; move to new pos, extruding.
G0 X86.324 Y129.320 ; non-extrude movement 
G1 X84.991 Y129.320 E72.809 ; move to new pos, extruding.
G0 X80.991 Y129.320 ; non-extrude movement 
G1 X80.325 Y129.320 E72.842 ; move to new pos, extruding.
G0 X74.659 Y129.320 ; non-extrude movement 
G1 X73.992 Y129.320 E72.876 ; move to new pos, extruding.
G0 X69.993 Y129.320 ; non-extrude movement 
G1 X68.659 Y129.320 E72.942 ; move to new pos, extruding.
G0 X64.993 Y129.320 ; non-extrude movement 
G1 X63.660 Y129.320 E73.009 ; move to new pos, extruding.
G0 X57.327 Y129.320 ; non-extrude movement 
G1 X55.994 Y129.320 E73.076 ; move to new pos, extruding.
G0 X51.328 Y129.320 ; non-extrude movement 
G1 X50.661 Y129.320 E73.109 ; move to new pos, extruding.
G0 X48.328 Y129.320 ; non-extrude movement 
G1 X46.995 Y129.320 E73.176 ; move to new pos, extruding.
G0 X42.995 Y129.320 ; non-extrude movement 
G1 X42.329 Y129.320 E73.209 ; move to new pos, extruding.
G0 X37.329 Y129.320 ; non-extrude movement 
G1 X35.996 Y129.320 E73.276 ; move to new pos, extruding.
G0 X31.330 Y129.320 ; non-extrude movement 
G1 X30.663 Y129.320 E73.309 ; move to new pos, extruding.
G0 X26.330 Y129.320 ; non-extrude movement 
G1 X24.997 Y129.320 E73.375 ; move to new pos, extruding.
G0 X21.331 Y129.320 ; non-extrude movement 
G1 X19.998 Y129.320 E73.442 ; move to new pos, extruding.
G0 X13.665 Y129.320 ; non-extrude movement 
G1 X12.332 Y129.320 E73.509 ; move to new pos, extruding.
G0 X148.651 Y128.987 ; non-extrude movement 
G1 X144.318 Y128.987 E73.725 ; move to new pos, extruding.
G0 X138.986 Y128.987 ; non-extrude movement 
G1 X138.319 Y128.987 E73.759 ; move to new pos, extruding.
G0 X134.319 Y128.987 ; non-extrude movement 
G1 X132.986 Y128.987 E73.825 ; move to new pos, extruding.
G0 X127.653 Y128.987 ; non-extrude movement 
G1 X126.987 Y128.987 E73.859 ; move to new pos, extruding.
G0 X122.987 Y128.987 ; non-extrude movement 
G1 X121.654 Y128.987 E73.925 ; move to new pos, extruding.
G0 X112.655 Y128.987 ; non-extrude movement 
G1 X111.322 Y128.987 E73.992 ; move to new pos, extruding.
G0 X106.989 Y128.987 ; non-extrude movement 
G1 X103.323 Y128.987 E74.175 ; move to new pos, extruding.
G0 X93.990 Y128.987 ; non-extrude movement 
G1 X92.657 Y128.987 E74.242 ; move to new pos, extruding.
G0 X85.991 Y128.987 ; non-extrude movement 
G1 X84.658 Y128.987 E74.309 ; move to new pos, extruding.
G0 X80.991 Y128.987 ; non-extrude movement 
G1 X80.325 Y128.987 E74.342 ; move to new pos, extruding.
G0 X74.659 Y128.987 ; non-extrude movement 
G1 X73.992 Y128.987 E74.375 ; move to new pos, extruding.
G0 X69.993 Y128.987 ; non-extrude movement 
G1 X68.659 Y128.987 E74.442 ; move to new pos, extruding.
G0 X64.993 Y128.987 ; non-extrude movement 
G1 X63.660 Y128.987 E74.509 ; move to new pos, extruding.
G0 X57.327 Y128.987 ; non-extrude movement 
G1 X55.994 Y128.987 E74.575 ; move to new pos, extruding.
G0 X51.328 Y128.987 ; non-extrude movement 
G1 X50.661 Y128.987 E74.609 ; move to new pos, extruding.
G0 X48.328 Y128.987 ; non-extrude movement 
G1 X46.662 Y128.987 E74.692 ; move to new pos, extruding.
G0 X42.995 Y128.987 ; non-extrude movement 
G1 X42.329 Y128.987 E74.725 ; move to new pos, extruding.
G0 X37.329 Y128.987 ; non-extrude movement 
G1 X35.996 Y128.987 E74.792 ; move to new pos, extruding.
G0 X31.330 Y128.987 ; non-extrude movement 
G1 X30.663 Y128.987 E74.825 ; move to new pos, extruding.
G0 X26.330 Y128.987 ; non-extrude movement 
G1 X24.997 Y128.987 E74.892 ; move to new pos, extruding.
G0 X21.331 Y128.987 ; non-extrude movement 
G1 X19.998 Y128.987 E74.959 ; move to new pos, extruding.
G0 X13.665 Y128.987 ; non-extrude movement 
G1 X12.332 Y128.987 E75.025 ; move to new pos, extruding.
G0 X149.985 Y128.653 ; non-extrude movement 
G1 X144.318 Y128.653 E75.309 ; move to new pos, extruding.
G0 X138.986 Y128.653 ; non-extrude movement 
G1 X138.319 Y128.653 E75.342 ; move to new pos, extruding.
G0 X134.319 Y128.653 ; non-extrude movement 
G1 X132.986 Y128.653 E75.409 ; move to new pos, extruding.
G0 X127.653 Y128.653 ; non-extrude movement 
G1 X126.987 Y128.653 E75.442 ; move to new pos, extruding.
G0 X122.987 Y128.653 ; non-extrude movement 
G1 X121.654 Y128.653 E75.509 ; move to new pos, extruding.
G0 X112.655 Y128.653 ; non-extrude movement 
G1 X111.322 Y128.653 E75.575 ; move to new pos, extruding.
G0 X106.322 Y128.653 ; non-extrude movement 
G1 X102.323 Y128.653 E75.775 ; move to new pos, extruding.
G0 X93.990 Y128.653 ; non-extrude movement 
G1 X92.657 Y128.653 E75.842 ; move to new pos, extruding.
G0 X85.991 Y128.653 ; non-extrude movement 
G1 X84.658 Y128.653 E75.909 ; move to new pos, extruding.
G0 X81.325 Y128.653 ; non-extrude movement 
G1 X80.658 Y128.653 E75.942 ; move to new pos, extruding.
G0 X74.659 Y128.653 ; non-extrude movement 
G1 X73.992 Y128.653 E75.975 ; move to new pos, extruding.
G0 X69.993 Y128.653 ; non-extrude movement 
G1 X68.659 Y128.653 E76.042 ; move to new pos, extruding.
G0 X65.326 Y128.653 ; non-extrude movement 
G1 X63.660 Y128.653 E76.125 ; move to new pos, extruding.
G0 X57.327 Y128.653 ; non-extrude movement 
G1 X55.994 Y128.653 E76.192 ; move to new pos, extruding.
G0 X51.328 Y128.653 ; non-extrude movement 
G1 X50.661 Y128.653 E76.225 ; move to new pos, extruding.
G0 X47.995 Y128.653 ; non-extrude movement 
G1 X46.328 Y128.653 E76.309 ; move to new pos, extruding.
G0 X42.995 Y128.653 ; non-extrude movement 
G1 X42.329 Y128.653 E76.342 ; move to new pos, extruding.
G0 X37.329 Y128.653 ; non-extrude movement 
G1 X35.996 Y128.653 E76.409 ; move to new pos, extruding.
G0 X31.330 Y128.653 ; non-extrude movement 
G1 X30.663 Y128.653 E76.442 ; move to new pos, extruding.
G0 X26.330 Y128.653 ; non-extrude movement 
G1 X24.997 Y128.653 E76.509 ; move to new pos, extruding.
G0 X21.664 Y128.653 ; non-extrude movement 
G1 X19.998 Y128.653 E76.592 ; move to new pos, extruding.
G0 X13.665 Y128.653 ; non-extrude movement 
G1 X12.332 Y128.653 E76.659 ; move to new pos, extruding.
G0 X150.651 Y128.320 ; non-extrude movement 
G1 X149.318 Y128.320 E76.725 ; move to new pos, extruding.
G0 X145.652 Y128.320 ; non-extrude movement 
G1 X144.318 Y128.320 E76.792 ; move to new pos, extruding.
G0 X138.986 Y128.320 ; non-extrude movement 
G1 X138.319 Y128.320 E76.825 ; move to new pos, extruding.
G0 X134.319 Y128.320 ; non-extrude movement 
G1 X132.986 Y128.320 E76.892 ; move to new pos, extruding.
G0 X127.653 Y128.320 ; non-extrude movement 
G1 X126.987 Y128.320 E76.925 ; move to new pos, extruding.
G0 X122.987 Y128.320 ; non-extrude movement 
G1 X121.654 Y128.320 E76.992 ; move to new pos, extruding.
G0 X112.655 Y128.320 ; non-extrude movement 
G1 X111.322 Y128.320 E77.058 ; move to new pos, extruding.
G0 X105.656 Y128.320 ; non-extrude movement 
G1 X101.656 Y128.320 E77.258 ; move to new pos, extruding.
G0 X93.990 Y128.320 ; non-extrude movement 
G1 X92.657 Y128.320 E77.325 ; move to new pos, extruding.
G0 X85.991 Y128.320 ; non-extrude movement 
G1 X84.324 Y128.320 E77.408 ; move to new pos, extruding.
G0 X81.325 Y128.320 ; non-extrude movement 
G1 X80.658 Y128.320 E77.442 ; move to new pos, extruding.
G0 X74.659 Y128.320 ; non-extrude movement 
G1 X73.992 Y128.320 E77.475 ; move to new pos, extruding.
G0 X69.993 Y128.320 ; non-extrude movement 
G1 X68.659 Y128.320 E77.542 ; move to new pos, extruding.
G0 X65.326 Y128.320 ; non-extrude movement 
G1 X63.660 Y128.320 E77.625 ; move to new pos, extruding.
G0 X57.327 Y128.320 ; non-extrude movement 
G1 X55.994 Y128.320 E77.692 ; move to new pos, extruding.
G0 X51.328 Y128.320 ; non-extrude movement 
G1 X50.661 Y128.320 E77.725 ; move to new pos, extruding.
G0 X47.661 Y128.320 ; non-extrude movement 
G1 X45.995 Y128.320 E77.808 ; move to new pos, extruding.
G0 X42.995 Y128.320 ; non-extrude movement 
G1 X42.329 Y128.320 E77.842 ; move to new pos, extruding.
G0 X37.329 Y128.320 ; non-extrude movement 
G1 X35.996 Y128.320 E77.908 ; move to new pos, extruding.
G0 X31.330 Y128.320 ; non-extrude movement 
G1 X30.663 Y128.320 E77.942 ; move to new pos, extruding.
G0 X26.330 Y128.320 ; non-extrude movement 
G1 X24.997 Y128.320 E78.008 ; move to new pos, extruding.
G0 X21.664 Y128.320 ; non-extrude movement 
G1 X19.998 Y128.320 E78.092 ; move to new pos, extruding.
G0 X13.665 Y128.320 ; non-extrude movement 
G1 X12.332 Y128.320 E78.158 ; move to new pos, extruding.
G0 X150.984 Y127.987 ; non-extrude movement 
G1 X149.651 Y127.987 E78.225 ; move to new pos, extruding.
G0 X145.652 Y127.987 ; non-extrude movement 
G1 X144.318 Y127.987 E78.292 ; move to new pos, extruding.
G0 X138.986 Y127.987 ; non-extrude movement 
G1 X132.986 Y127.987 E78.592 ; move to new pos, extruding.
G0 X127.653 Y127.987 ; non-extrude movement 
G1 X121.654 Y127.987 E78.892 ; move to new pos, extruding.
G0 X112.655 Y127.987 ; non-extrude movement 
G1 X111.322 Y127.987 E78.958 ; move to new pos, extruding.
G0 X104.989 Y127.987 ; non-extrude movement 
G1 X100.989 Y127.987 E79.158 ; move to new pos, extruding.
G0 X93.990 Y127.987 ; non-extrude movement 
G1 X92.657 Y127.987 E79.225 ; move to new pos, extruding.
G0 X85.658 Y127.987 ; non-extrude movement 
G1 X84.324 Y127.987 E79.292 ; move to new pos, extruding.
G0 X81.325 Y127.987 ; non-extrude movement 
G0 X74.659 Y127.987 ; non-extrude movement 
G1 X68.659 Y127.987 E79.592 ; move to new pos, extruding.
G0 X64.993 Y127.987 ; non-extrude movement 
G1 X63.660 Y127.987 E79.658 ; move to new pos, extruding.
G0 X57.327 Y127.987 ; non-extrude movement 
G1 X55.994 Y127.987 E79.725 ; move to new pos, extruding.
G0 X51.328 Y127.987 ; non-extrude movement 
G1 X50.661 Y127.987 E79.758 ; move to new pos, extruding.
G0 X47.328 Y127.987 ; non-extrude movement 
G1 X45.995 Y127.987 E79.825 ; move to new pos, extruding.
G0 X42.995 Y127.987 ; non-extrude movement 
G1 X42.329 Y127.987 E79.858 ; move to new pos, extruding.
G0 X37.329 Y127.987 ; non-extrude movement 
G1 X35.996 Y127.987 E79.925 ; move to new pos, extruding.
G0 X31.330 Y127.987 ; non-extrude movement 
G1 X24.997 Y127.987 E80.241 ; move to new pos, extruding.
G0 X21.331 Y127.987 ; non-extrude movement 
G1 X19.998 Y127.987 E80.308 ; move to new pos, extruding.
G0 X13.665 Y127.987 ; non-extrude movement 
G1 X12.332 Y127.987 E80.375 ; move to new pos, extruding.
G0 X151.318 Y127.653 ; non-extrude movement 
G1 X149.985 Y127.653 E80.441 ; move to new pos, extruding.
G0 X145.652 Y127.653 ; non-extrude movement 
G1 X144.318 Y127.653 E80.508 ; move to new pos, extruding.
G0 X138.986 Y127.653 ; non-extrude movement 
G1 X132.986 Y127.653 E80.808 ; move to new pos, extruding.
G0 X127.653 Y127.653 ; non-extrude movement 
